!!!!SEGMENT: pl-cz--iii-882--001_brykner-jerzy--completorium-c-cum-invocarem.krn
!!!cenid: 17xx:861
!!!COM: Brykner, Jerzy
!!!COM-rism: pe30025739
!!!CDT: 1705-1760
!!!CNT: Polish
!!!OTL: Completorium C – Cum invocarem
!!!PDT:
!!!AGN: Completorium
!!!SMS-siglum: PL-CZ
!!!SMS-shelfmark: III-882
!!!NIFC-rismID: 300033576
!!!URL-scan: http://repozytorium.nifc.pl/skany/pl-cz-nut--iii-882
!!!ONB-nifc: UWAGA: części Completorium: Cum invocarem, In te Domine speravi, Qui habitat,
!!!SMS-variant:
!!!SMS-altvar:
**kern	**fb	**kern	**dynam	**kern	**dynam	**kern	**kern	**kern	**kern	**text
*part7	*	*part6	*part6	*part5	*part5	*part4	*part3	*part2	*part1	*part1
*group	*	*group2	*group2	*group2	*group2	*group1	*group1	*group1	*group1	*group1
*staff7	*	*staff6	*	*staff5	*	*staff4	*staff3	*staff2	*staff1	*staff1
*I"Organo.	*	*I"Violino Secundo.	*	*I"Violino Primo.	*	*I"Basso	*I"Tenor	*I"Alto	*I"Canto.	*
*I'org	*	*I'vl 2	*	*I'vl 1	*	*I'B	*I'T	*I'A	*I'S	*
*clefF4	*	*clefG2	*	*clefG2	*	*clefF4	*clefC4	*clefC3	*clefC1	*
*k[]	*	*k[]	*	*k[]	*	*k[]	*k[]	*k[]	*k[]	*
*M4/4	*	*M4/4	*	*M4/4	*	*M4/4	*M4/4	*M4/4	*M4/4	*
*met(c)	*	*met(c)	*	*met(c)	*	*met(c)	*met(c)	*met(c)	*met(c)	*
=1	=1	=1	=1	=1	=1	=1	=1	=1	=1	=1
*	*above	*	*	*	*	*	*	*	*	*
*2\right	*	*2\right	*	*2\right	*	*	*	*	*2\right	*
!LO:TX:a:t=Allegro.	!	!LO:TX:a:i:t=Allegro.	!	!LO:TX:a:i:t=Allegro.	!	!	!	!	!	!
!LO:TX:b:i:t=Cum invocarem.	!	!LO:TX:b:i:t=Cum invocarem.	!	!LO:TX:b:i:t=Cum invocarem.	!	!LO:TX:a:t=P:problem:Niekompletna partia Basso; brak części 001 - Cum invocarem	!	!LO:TX:a:t=P:problem:Niekompletna partia Alto; brak części 001 - Cum invocarem	!	!
!	!	!	!	!	!	!	!LO:TX:a:t=P:problem:w źródle brak partii Tenoru; informacja o obecności takiej partii w tym utworze widnieje na stronie tytułowej	!	!	!
!	!	!	!	!LO:TX:a:t=P:problem:mixed beam	!	!	!	!	!	!
8C/L	.	8cc\L	.	8cc\L	.	1ryy	1ryy	1ryy	0r	.
!	!	!LO:TX:t=P:problem:mixed beam	!	!LO:TX:t=P:problem:mixed beam	!	!	!	!	!	!
8C/	.	8c/	.	8c/	.	.	.	.	.	.
8C/	.	8c/	.	8c/	.	.	.	.	.	.
8C/J	.	8c/J	.	8c/J	.	.	.	.	.	.
!LO:TX:t=P:problem:mixed beam	!	!	!	!	!	!	!	!	!	!
8C/L	.	8c/L	.	8c/L	.	.	.	.	.	.
!LO:TX:a:i:t=ſolo	!	!	!	!	!	!	!	!	!	!
8c\	.	16e/L	.	16e/L	.	.	.	.	.	.
.	.	16f/JJ	.	16f/JJ	.	.	.	.	.	.
8c\	.	8g/L	.	8g/L	.	.	.	.	.	.
8c\J	.	16a/L	.	16a/L	.	.	.	.	.	.
.	.	16b/JJ	.	16b/JJ	.	.	.	.	.	.
=2	=2	=2	=2	=2	=2	=2	=2	=2	=2	=2
*	*	*Xtuplet	*	*Xtuplet	*	*	*	*	*	*
8c\L	.	24cc\LL	.	24cc\LL	.	1ryy	1ryy	1ryy	.	.
.	.	24dd\	.	24dd\	.	.	.	.	.	.
.	.	24ee\JJ	.	24ee\JJ	.	.	.	.	.	.
8B\	.	24dd\LL	.	24dd\LL	.	.	.	.	.	.
.	.	24ee\	.	24ee\	.	.	.	.	.	.
.	.	24ff\JJ	.	24ff\JJ	.	.	.	.	.	.
8c\	.	24ee\LL	.	24ee\LL	.	.	.	.	.	.
.	.	24ff\	.	24ff\	.	.	.	.	.	.
.	.	24gg\JJ	.	24gg\JJ	.	.	.	.	.	.
8d\J	.	24ff\LL	.	24ff\LL	.	.	.	.	.	.
.	.	24gg\	.	24gg\	.	.	.	.	.	.
.	.	24aa\JJ	.	24aa\JJ	.	.	.	.	.	.
8e\L	X 6	16gg\LL	.	16gg\LL	.	.	.	.	.	.
.	.	16ee\	.	16ee\	.	.	.	.	.	.
8c\	.	16ff\	.	16ff\	.	.	.	.	.	.
.	.	16gg\JJ	.	16gg\JJ	.	.	.	.	.	.
8F\	X 6	24aa\LL	.	24aa\LL	.	.	.	.	.	.
.	.	24bb\	.	24bb\	.	.	.	.	.	.
.	.	24ccc\JJ	.	24ccc\JJ	.	.	.	.	.	.
8G\J	.	24bb\LL	.	24gg\LL	.	.	.	.	.	.
.	.	24ccc\	.	24aa\	.	.	.	.	.	.
.	.	24ddd\JJ	.	24bb\JJ	.	.	.	.	.	.
=3	=3	=3	=3	=3	=3	=3	=3	=3	=3	=3
8C/L	X 8	8ccc\L	.	8ccc\L	.	1ryy	1ryy	1ryy	1r	.
8C/	.	16bb\L	.	16bb\L	.	.	.	.	.	.
.	.	16aa\JJ	.	16aa\JJ	.	.	.	.	.	.
8C/	.	16gg\LL	.	16gg\LL	.	.	.	.	.	.
.	.	16ff\	.	16ff\	.	.	.	.	.	.
8C/J	.	16ee\	.	16ee\	.	.	.	.	.	.
.	.	16dd\JJ	.	16dd\JJ	.	.	.	.	.	.
8C/L	.	8ee\L	.	8ee\L	.	.	.	.	.	.
8F/J	.	8aa\J	.	8aa\J	.	.	.	.	.	.
!	!	!LO:LB:g=original	!	!LO:LB:g=original	!	!	!	!	!	!
8E/L	X 6	16gg\LL	.	16gg\LL	.	.	.	.	.	.
.	.	16ee\	.	16ee\	.	.	.	.	.	.
8D/J	X 6	16ff\	.	16ff\	.	.	.	.	.	.
.	.	16dd\JJ	.	16dd\JJ	.	.	.	.	.	.
=4	=4	=4	=4	=4	=4	=4	=4	=4	=4-	=4
8C/L	.	4cc\	.	4cc\	.	1ryy	1ryy	1ryy	2r	.
8E/J	.	.	.	.	.	.	.	.	.	.
!LO:TX:t=P:problem:mixed beam	!	!	!	!	!	!	!	!	!	!
8G\L	.	4b\	.	4ddT\	.	.	.	.	.	.
8GG/J	.	.	.	.	.	.	.	.	.	.
!LO:TX:a:i:t=Tutti	!	!	!	!	!	!	!	!	!	!
8C/L	.	8cc\L	.	8cc\L	.	.	.	.	4r	.
8C/	.	8cc\	.	8cc\	.	.	.	.	.	.
8C/	.	8cc\	.	8cc\	.	.	.	.	4ee\	Cum
8C/J	.	8cc\J	.	8cc\J	.	.	.	.	.	.
=5	=5	=5	=5	=5	=5	=5	=5	=5	=5	=5
!LO:TX:t=P:problem:mixed beam	!	!	!	!	!	!	!	!	!	!
!	!	!	!	!LO:TX:a:t=P:problem:w źródle "×" dopisane ołówkiem	!	!	!	!	!	!
!	!	!	!	!LO:TX:a:t=×	!	!	!	!	!	!
8C/L	.	16cc\LL	.	16ee\LL	.	1ryy	1ryy	1ryy	16ee\LL	in-
!	!	!	!	!LO:TX:a:t=P:problem:w źródle "I" dopisane ołówkiem	!	!	!	!	!	!
!	!	!	!	!LO:TX:a:t=I	!	!	!	!	!	!
.	.	16cc\	.	16ee\	.	.	.	.	16dd\JJ	.
8C/	.	16cc\	.	16ee\	.	.	.	.	4ee\	.
.	.	16cc\JJ	.	16ee\JJ	.	.	.	.	.	.
8C/	.	16ee\LL	.	16gg\LL	.	.	.	.	.	.
.	.	16ee\	.	16gg\	.	.	.	.	.	.
8c\J	.	16ee\	.	16gg\	.	.	.	.	8ee\	-vo-
.	.	16ee\JJ	.	16gg\JJ	.	.	.	.	.	.
!LO:LB:g=original	!	!	!	!	!	!	!	!	!	!
8B\L	X 6	8dd\L	.	8gg\L	.	.	.	.	8dd\L	-ca-
8A\	.	8cc\	.	8ccc\	.	.	.	.	8cc\J	.
8G\	.	8dd\	.	8bb\	.	.	.	.	4bt\	.
8F\J	.	8dd\J	.	8aa\J	.	.	.	.	.	.
=6	=6	=6	=6	=6	=6	=6	=6	=6	=6	=6
8E\L	X 6	8cc\L	.	8gg\L	.	1ryy	1ryy	1ryy	8cc\L	.
8D\	.	8b\	.	8ff\	.	.	.	.	8b\J	.
8C\	.	8cc\	.	8ee\	.	.	.	.	8cc\	-rem
8E\J	.	8cc\J	.	8gg\J	.	.	.	.	4cc\	ex-
8F\L	.	8cc\L	.	8aa\L	.	.	.	.	.	.
8E\J	.	8cc\	.	16gg\L	.	.	.	.	8cc\	-au-
.	.	.	.	16ff\JJ	.	.	.	.	.	.
4A\	.	8cc\	.	8ee\L	.	.	.	.	8cc\	-di-
.	.	8ee\J	.	8ccc\J	.	.	.	.	16ee\	-vit
.	.	.	.	.	.	.	.	.	16ee\	me
=7	=7	=7	=7	=7	=7	=7	=7	=7	=7	=7
8G\L	X 6	8ee\L	.	8bb\L	.	1ryy	1ryy	1ryy	8ee\	De-
8A\J	.	8ee\	.	16ccc\L	.	.	.	.	16ee\	-us
.	.	.	.	16bb\JJ	.	.	.	.	16ee\	jus-
8D\L	.	8ff\	.	8aa\L	.	.	.	.	8ff\	-ti-
8E\J	X #	8ee\J	.	8gg#X\J	.	.	.	.	16ee\	-ti-
.	.	.	.	.	.	.	.	.	16ee\	-ae
!	!	!	!	!	!	!	!	!	!LO:LB:g=original	!
2F\	X 7	4ee\	.	2aa\	.	.	.	.	4ee\	me-
.	X 6	4dd\	.	.	.	.	.	.	4ddT\	.
=8	=8	=8	=8	=8	=8	=8	=8	=8	=8	=8
4E\	X #	8ee\L	.	4gg#X\	.	1ryy	1ryy	1ryy	8ee\	-ae
.	.	8b\J	.	.	.	.	.	.	8b\	in
8r	.	4.cc\	.	8r	.	.	.	.	4.cc\	tri-
8E\	X 6	.	.	8ggn\	.	.	.	.	.	.
!	!	!	!	!LO:LB:g=original	!	!	!	!	!	!
4.F\	.	.	.	4.aa\	.	.	.	.	.	.
.	.	16b\LL	.	.	.	.	.	.	16b\LL	-bu-
.	.	16cc\JJ	.	.	.	.	.	.	16cc\JJ	.
.	.	[<4a/	.	.	.	.	.	.	[>4a\	-la-
16E\LL	.	.	.	16gg\LL	.	.	.	.	.	.
16F\JJ	.	.	.	16aa\JJ	.	.	.	.	.	.
=9	=9	=9	=9	=9	=9	=9	=9	=9	=9	=9
!	!	!	!	!	!	!	!	!	!LO:TX:a:t=P:problem:w źródle ta nuta, jako przedłużenie ostatniej nuty z poprzedniego taktu, zapisana jako kropka	!
!	!	!LO:TX:a:t=P:problem:w źródle brak zakończenia ligatury	!	!	!	!	!	!	!	!
4.D\	.	8a/L]	.	4.ff\	.	1ryy	1ryy	1ryy	8a\]	.
.	.	16b/L	.	.	.	.	.	.	16b\LL	-ti-
.	.	16cc/JJ	.	.	.	.	.	.	16cc\JJ	.
.	.	8dd\L	.	.	.	.	.	.	8dd\	-o-
16E\LL	X 6	8dd\J	.	16gg\LL	.	.	.	.	8dd\	-ne
16F\JJ	.	.	.	16aa\JJ	.	.	.	.	.	.
!LO:TX:t=P:problem:mixed beam	!	!	!	!	!	!	!	!	!	!
8G\L	.	8b\L	.	8bb\L	.	.	.	.	8b\	di-
8GG/J	.	8dd\J	.	8bb\J	.	.	.	.	8dd\	-la-
8r	.	16ff\LL	.	16r	.	.	.	.	[>4ff\	-ta-
.	.	16ff\	.	16aa\LL	.	.	.	.	.	.
8d\	.	16ff\	.	16aa\	.	.	.	.	.	.
.	.	16ff\JJ	.	16aa\JJ	.	.	.	.	.	.
=10	=10	=10	=10	=10	=10	=10	=10	=10	=10	=10
8B\L	6 5	16ff\LL	.	16gg\LL	.	1ryy	1ryy	1ryy	8ff\]	.
.	.	16ff\	.	16gg\	.	.	.	.	.	.
8c\	.	16ee\	.	16gg\	.	.	.	.	4ee\	.
.	.	16ee\JJ	.	16gg\JJ	.	.	.	.	.	.
8A\	6 5	16ee\LL	.	16ff\LL	.	.	.	.	.	.
.	.	16ee\	.	16ff\	.	.	.	.	.	.
8B\J	.	16dd\	.	16ff\	.	.	.	.	4dd\	.
.	.	16dd\JJ	.	16ff\JJ	.	.	.	.	.	.
!LO:LB:g=original	!	!	!	!	!	!	!	!	!	!
!LO:TX:t=P:problem:mixed beam	!	!	!	!	!	!	!	!	!	!
8c\L	X 9	8dd\L	.	8ff\L	.	.	.	.	.	.
8C/J	X 8	8cc\J	.	16ee\L	.	.	.	.	16cc\LL	.
.	.	.	.	16ff\JJ	.	.	.	.	16b\JJ	.
8E\L	X 6	8cc\L	.	8gg\L	.	.	.	.	8cc\	.
8F\J	.	16b\L	.	8aa\J	.	.	.	.	8a\	-sti
.	.	16a\JJ	.	.	.	.	.	.	.	.
=11	=11	=11	=11	=11	=11	=11	=11	=11	=11	=11
1G	5 3	4b\	.	8dd\L	.	1ryy	1ryy	1ryy	4b\	mi-
.	6 4	.	.	8ff\J	.	.	.	.	.	.
.	5 4	4.cc\	.	8ee\L	.	.	.	.	4.cc\	.
.	X 3	.	.	16dd\L	.	.	.	.	.	.
.	.	.	.	16cc\JJ	.	.	.	.	.	.
.	.	.	.	2dd\	.	.	.	.	.	.
.	.	16b\LL	.	.	.	.	.	.	16b\LL	.
.	.	16a\JJ	.	.	.	.	.	.	16a\JJ	.
.	.	4b\	.	.	.	.	.	.	4b\	.
!	!	!	!	!	!	!	!	!	!LO:LB:g=original	!
=12	=12	=12	=12	=12	=12	=12	=12	=12	=12	=12
8C/L	.	16cc\LL	.	16cc\LL	.	1ryy	1ryy	1ryy	4cc\	-hi
.	.	16dd\	.	16dd\	.	.	.	.	.	.
8C/J	.	16ee\	.	16ee\	.	.	.	.	.	.
.	.	16ff\JJ	.	16ff\JJ	.	.	.	.	.	.
!LO:TX:a:i:t=ſolo.	!	!	!	!	!	!	!	!	!	!
8E\L	X 6	16gg\LL	.	16gg\LL	.	.	.	.	4r	.
.	.	16ee\	.	16ee\	.	.	.	.	.	.
8F\J	.	16dd\	.	16dd\	.	.	.	.	.	.
.	.	16cc\JJ	.	16cc\JJ	.	.	.	.	.	.
!LO:TX:t=P:problem:mixed beam	!	!	!	!	!	!	!	!	!	!
8G\L	.	8b\L	.	8b\L	.	.	.	.	2r	.
8C/J	.	8cc\J	.	8cc\J	.	.	.	.	.	.
!LO:TX:t=P:problem:mixed beam	!	!	!	!	!	!	!	!	!	!
8C/L	.	8r	.	8r	.	.	.	.	.	.
8F\J	.	8aa\	.	8aa\	.	.	.	.	.	.
!	!	!LO:LB:g=original	!	!LO:LB:g=original	!	!	!	!	!	!
=13	=13	=13	=13	=13	=13	=13	=13	=13	=13	=13
8E\L	.	16gg\LL	.	16gg\LL	.	1ryy	1ryy	1ryy	00r	.
.	.	16ee\	.	16ee\	.	.	.	.	.	.
8D\	.	16ff\	.	16ff\	.	.	.	.	.	.
.	.	16dd\JJ	.	16dd\JJ	.	.	.	.	.	.
8C\	.	16ee\LL	.	16ee\LL	.	.	.	.	.	.
.	.	16cc\	.	16cc\	.	.	.	.	.	.
8F\J	.	16dd\	.	16dd\	.	.	.	.	.	.
.	.	16a\JJ	.	16a\JJ	.	.	.	.	.	.
!LO:TX:t=P:problem:mixed beam	!	!	!	!LO:TX:a:t=P:problem:mixed beam	!	!	!	!	!	!
!	!	!LO:TX:a:t=P:problem:mixed beam	!	!	!	!	!	!	!	!
8G\L	.	8b\L	.	8b\L	.	.	.	.	.	.
8c\	.	8cc\	.	8cc\	.	.	.	.	.	.
8G\	X 4	8d/	.	8d/	.	.	.	.	.	.
8GG/J	X 3	8b\J	.	8b\J	.	.	.	.	.	.
=14	=14	=14	=14	=14	=14	=14	=14	=14	=14	=14
!	!	!LO:TX:a:t=P:problem:mixed beam	!	!LO:TX:t=P:problem:mixed beam	!	!	!	!	!	!
8C/L	.	8cc\L	.	8cc\L	.	1ryy	1ryy	1ryy	.	.
8C/	.	8c/J	.	8c/J	.	.	.	.	.	.
8BB/	.	8r	.	8r	.	.	.	.	.	.
!	!	!	!LO:DY:b:t=p&colon;	!	!LO:DY:b:t=p&colon;	!	!	!	!	!
8GG/J	.	8e/	p	8g/	p	.	.	.	.	.
8C/L	.	8e/L	.	8g/L	.	.	.	.	.	.
8C/	.	8e/	.	8g/	.	.	.	.	.	.
8C/	.	8e/	.	8g/	.	.	.	.	.	.
8C/J	.	8e/J	.	8g/J	.	.	.	.	.	.
=15	=15	=15	=15	=15	=15	=15	=15	=15	=15	=15
8C/L	.	8e/L	.	8g/L	.	1ryy	1ryy	1ryy	.	.
8BB/	.	8d/	.	8g/	.	.	.	.	.	.
8C/	.	8e/	.	8g/	.	.	.	.	.	.
8D/J	.	8f/J	.	8b/J	.	.	.	.	.	.
8E/L	X 6	8g/L	.	8cc\L	.	.	.	.	.	.
8C/	.	8e/	.	8cc\	.	.	.	.	.	.
8D/	X 6	8f/	.	8cc\	.	.	.	.	.	.
8GG/J	.	8f/J	.	8b\J	.	.	.	.	.	.
!LO:LB:g=original	!	!	!	!	!	!	!	!	!	!
=16	=16	=16	=16	=16	=16	=16	=16	=16	=16	=16
8C/L	.	8e/L	.	8cc\L	.	1ryy	1ryy	1ryy	.	.
8C/	.	8g/	.	8ee\	.	.	.	.	.	.
8C/	.	8g/	.	8ee\	.	.	.	.	.	.
8C/J	.	8g/J	.	8ee\J	.	.	.	.	.	.
8C/L	.	8g/L	.	8ee\L	.	.	.	.	.	.
8C/	.	8a/	.	8ee\	.	.	.	.	.	.
8AA/	.	8a/	.	8cc\	.	.	.	.	.	.
8AA/J	.	8a/J	.	8cc\J	.	.	.	.	.	.
=17	=17	=17	=17	=17	=17	=17	=17	=17	=17	=17
8D/L	.	8f#X/L	.	8a/L	.	1ryy	1ryy	1ryy	0r	.
8D/	.	8f#/	.	8a/J	.	.	.	.	.	.
8E/	.	8g/	.	8dd\L	.	.	.	.	.	.
8C/J	.	8g/J	.	16b\L	.	.	.	.	.	.
.	.	.	.	16cc\JJ	.	.	.	.	.	.
8BB/L	X 6	8g/L	.	8dd\L	.	.	.	.	.	.
8GG/	.	8g/J	.	8ee\J	.	.	.	.	.	.
!	!	!LO:LB:g=original	!	!	!	!	!	!	!	!
8D/	X 4	8g/L	.	8a/L	.	.	.	.	.	.
8DD/J	X #	8f#X/J	.	8a/J	.	.	.	.	.	.
!	!	!	!	!LO:LB:g=original	!	!	!	!	!	!
=18	=18	=18	=18	=18	=18	=18	=18	=18	=18	=18
!	!	!	!LO:DY:b:t=f.	!	!	!	!	!	!	!
8GG/L	.	16g/LL	f	16g/LL	.	1ryy	1ryy	1ryy	.	.
!	!	!	!	!	!LO:DY:b:t=f.	!	!	!	!	!
.	.	16a/	.	16a/	f	.	.	.	.	.
8GG/	.	16b/	.	16b/	.	.	.	.	.	.
.	.	16cc/JJ	.	16cc/JJ	.	.	.	.	.	.
8BB/	X 6	16dd/LL	.	16dd/LL	.	.	.	.	.	.
.	.	16b/	.	16b/	.	.	.	.	.	.
8C/J	.	16a/	.	16a/	.	.	.	.	.	.
.	.	16g/JJ	.	16g/JJ	.	.	.	.	.	.
!LO:TX:t=P:problem:mixed beam	!	!	!	!	!	!	!	!	!	!
8D/L	X #	8f#X/L	.	8f#X/L	.	.	.	.	.	.
8G\J	.	8g/J	.	8g/J	.	.	.	.	.	.
8G\L	.	8r	.	8r	.	.	.	.	.	.
8c\J	.	8ee\	.	8ee\	.	.	.	.	.	.
=19	=19	=19	=19	=19	=19	=19	=19	=19	=19	=19
!LO:TX:t=P:problem:mixed beam	!	!	!	!	!	!	!	!	!	!
8B\L	X 6	16dd\LL	.	16dd\LL	.	1ryy	1ryy	1ryy	1r	.
.	.	16b\	.	16b\	.	.	.	.	.	.
8A\	X 6/	16cc\	.	16cc\	.	.	.	.	.	.
.	.	16a\JJ	.	16a\JJ	.	.	.	.	.	.
8G\	.	16b/LL	.	16b/LL	.	.	.	.	.	.
.	.	16g/	.	16g/	.	.	.	.	.	.
8C/J	X 6	16a/	.	16a/	.	.	.	.	.	.
.	.	16e/JJ	.	16e/JJ	.	.	.	.	.	.
!LO:TX:t=P:problem:mixed beam	!	!	!	!	!	!	!	!	!	!
8D\L	X #	8f#X/L	.	8f#X/L	.	.	.	.	.	.
8G\	.	8g/	.	8g/	.	.	.	.	.	.
8D\	X 4	8A/	.	8A/	.	.	.	.	.	.
8DD/J	X #	8f#X/J	.	8f#X/J	.	.	.	.	.	.
=20	=20	=20	=20	=20	=20	=20	=20	=20	=20	=20
!LO:TX:t=P:problem:mixed beam	!	!	!	!	!	!	!	!	!	!
8GG/L	.	8g/L	.	8g/L	.	1ryy	1ryy	1ryy	4.dd\	Fi-
8G\	.	8G/J	.	8G/J	.	.	.	.	.	.
!	!	!	!	!	!LO:DY:b:t=p.	!	!	!	!	!
8B\	X 6	8g/L	.	8dd\L	p	.	.	.	.	.
!	!	!	!LO:DY:b:t=p&colon;	!	!	!	!	!	!	!
8c\J	.	8g/J	p	8ee\J	.	.	.	.	16ee\	-lij
.	.	.	.	.	.	.	.	.	16ee\	.
!LO:TX:t=P:problem:mixed beam	!	!	!	!	!	!	!	!	!	!
8B\L	X 6	16g/LL	.	16dd\LL	.	.	.	.	16dd\	ho-
.	.	16b/	.	16b\	.	.	.	.	16g\	-mi-
8G\	.	16a/	.	16a\	.	.	.	.	8g\	-num
.	.	16g/JJ	.	16g\JJ	.	.	.	.	.	.
8d\	X #	16b/LL	.	16b/LL	.	.	.	.	4r	.
.	.	16a/	.	16a/	.	.	.	.	.	.
8D/J	.	16g/	.	16g/	.	.	.	.	.	.
.	.	16f#X/JJ	.	16f#X/JJ	.	.	.	.	.	.
!LO:LB:g=original	!	!	!	!	!	!	!	!	!	!
=21	=21	=21	=21	=21	=21	=21	=21	=21	=21	=21
8G\L	.	8g/L	.	8g/L	.	1ryy	1ryy	1ryy	8g\	us-
8G\	.	8G/J	.	8g/	.	.	.	.	16a\	-que-
.	.	.	.	.	.	.	.	.	16b\	-quo
8F#X\	X 6	8d/L	.	8a/	.	.	.	.	8a\	gra-
8G\J	.	8g/J	.	8b/J	.	.	.	.	8b\	-vi
!	!	!LO:LB:g=original	!	!	!	!	!	!	!	!
8A\L	X 7	8g/L	.	8cc/L	.	.	.	.	4cc\	cor-
8D\J	7 #	8f#X/J	.	16b/L	.	.	.	.	.	.
.	.	.	.	16a/JJ	.	.	.	.	.	.
!	!	!	!	!LO:LB:g=original	!	!	!	!	!	!
16r	.	16r	.	16b/LL	.	.	.	.	4b\	-de
16G\LL	.	16g/LL	.	16g/	.	.	.	.	.	.
16D\	.	16d/	.	16d/	.	.	.	.	.	.
16BB\JJ	.	16B/JJ	.	16B/JJ	.	.	.	.	.	.
=22	=22	=22	=22	=22	=22	=22	=22	=22	=22	=22
!LO:TX:t=P:problem:mixed beam	!	!	!	!LO:TX:t=P:problem:mixed beam	!	!	!	!	!	!
8GG/L	.	8G/L	.	8G/L	.	1ryy	1ryy	1ryy	8r	.
8G\	.	8d/	.	8b\	.	.	.	.	8dd\	ut
8B\	.	8d/	.	8dd\	.	.	.	.	8dd\	quid
8A\J	.	8d/J	.	8cc\J	.	.	.	.	8cc\	di-
8G#X\L	X 6	8e/L	.	8b\L	.	.	.	.	16b\	-li-
.	.	.	.	.	.	.	.	.	16e/	-gi-
8E\	X #	8g#X/	.	8b\	.	.	.	.	8e/	-tis
!	!	!	!	!	!	!	!	!	!LO:LB:g=original	!
8E\	.	8g#/	.	8b\	.	.	.	.	8r	.
8D\J	.	8g#/J	.	8b\J	.	.	.	.	8e/	va-
=23	=23	=23	=23	=23	=23	=23	=23	=23	=23	=23
!LO:TX:t=P:problem:mixed beam	!	!	!	!	!	!	!	!	!	!
8C/L	X 6	8e/L	.	8a/L	.	1ryy	1ryy	1ryy	8a\	.
8A\	.	8e/	.	8cc/	.	.	.	.	16b\LL	.
.	.	.	.	.	.	.	.	.	16cc\JJ	-ni-
8G#X\	X 6	8e/	.	8b/	.	.	.	.	16b\LL	-ta-
.	.	.	.	.	.	.	.	.	16dd\	.
8E\J	.	8e/J	.	8b/J	.	.	.	.	16cc\	.
.	.	.	.	.	.	.	.	.	16b\JJ	.
8A\L	.	8e/L	.	8a/L	.	.	.	.	8cc\	.
8B\	.	8e/	.	8a/	.	.	.	.	8a\	-tem
8c\	.	8e/	.	8a/	.	.	.	.	8r	.
8A\J	.	8a/J	.	8cc/J	.	.	.	.	8ee\	&
=24	=24	=24	=24	=24	=24	=24	=24	=24	=24	=24
!LO:TX:t=P:problem:mixed beam	!	!	!	!	!	!	!	!	!	!
8B\L	X 6/	8g#X/L	.	8dd\L	.	1ryy	1ryy	1ryy	8dd\	quae-
8G#X\	X 6	8e/	.	8b\	.	.	.	.	16cc\LL	-ri-
.	.	.	.	.	.	.	.	.	16b\JJ	.
8A\	.	8e/	.	8cc\	.	.	.	.	8cc\	-tis
8AA/J	.	8a/J	.	8cc\J	.	.	.	.	16b\LL	men-
.	.	.	.	.	.	.	.	.	16a\JJ	.
!LO:TX:t=P:problem:mixed beam	!	!	!	!	!	!	!	!	!	!
8E\L	X 4	8a/L	.	8cc\L	.	.	.	.	4a\	-da-
8D\	.	8a/	.	8cc\	.	.	.	.	.	.
8E\	X #	8g#X/	.	8b\	.	.	.	.	8.b\	.
8EE/J	.	8g#/J	.	8b\J	.	.	.	.	.	.
.	.	.	.	.	.	.	.	.	16a\	-ci-
=25	=25	=25	=25	=25	=25	=25	=25	=25	=25	=25
!	!	!	!LO:DY:rj	!	!	!	!	!	!	!
!	!	!	!LO:DY:b	!	!	!	!	!	!	!
8AA/L	.	16a\LL	f	16a\LL	.	1ryy	1ryy	1ryy	4a\	-um
.	.	16b\	.	16b\	.	.	.	.	.	.
8AA/	.	16cc\	.	16cc\	.	.	.	.	.	.
.	.	16dd\JJ	.	16dd\JJ	.	.	.	.	.	.
8C/	X 6	16ee\LL	.	16ee\LL	.	.	.	.	4r	.
.	.	16cc\	.	16cc\	.	.	.	.	.	.
8D/J	.	16b\	.	16b\	.	.	.	.	.	.
.	.	16a\JJ	.	16a\JJ	.	.	.	.	.	.
8E\L	X #	8g#X/L	.	8g#X/L	.	.	.	.	2r	.
8A\	.	8a/J	.	8a/J	.	.	.	.	.	.
8A\	.	8r	.	8r	.	.	.	.	.	.
8d\J	.	8ff\	.	8ff\	.	.	.	.	.	.
!LO:LB:g=original	!	!LO:LB:g=original	!	!	!	!	!	!	!	!
=26	=26	=26	=26	=26	=26	=26	=26	=26	=26	=26
8c\L	X 6	16ee\LL	.	16ee\LL	.	1ryy	1ryy	1ryy	00r	.
.	.	16cc\	.	16cc\	.	.	.	.	.	.
8B\	X 6/	16dd\	.	16dd\	.	.	.	.	.	.
!	!	!	!	!LO:TX:a:t=P:problem:urwana kartka partii vl 1 [t. 26-50]	!	!	!	!	!	!
.	.	16b\JJ	.	16b\JJ	.	.	.	.	.	.
8A\	.	16cc\LL	.	4ryy	.	.	.	.	.	.
.	.	16a\	.	.	.	.	.	.	.	.
8D\J	X 6	16b\	.	.	.	.	.	.	.	.
.	.	16f#X\JJ	.	.	.	.	.	.	.	.
!LO:TX:t=P:problem:mixed beam	!	!	!	!	!	!	!	!	!	!
8E\L	X #	8g#X/L	.	2ryy	.	.	.	.	.	.
8A\	.	8a/	.	.	.	.	.	.	.	.
8E\	X 4	8B/	.	.	.	.	.	.	.	.
8EE/J	X #	8g#X/J	.	.	.	.	.	.	.	.
=27	=27	=27	=27	=27	=27	=27	=27	=27	=27	=27
!	!	!	!LO:DY:b:t=p&colon;	!	!	!	!	!	!	!
8AA/L	.	8a/L	p	1ryy	.	1ryy	1ryy	1ryy	.	.
8AA/	.	8a/	.	.	.	.	.	.	.	.
8AA/	.	8e/	.	.	.	.	.	.	.	.
8AA/J	.	8e/J	.	.	.	.	.	.	.	.
8AA/L	.	8e/L	.	.	.	.	.	.	.	.
8AA/	.	8e/	.	.	.	.	.	.	.	.
8AA/	.	8e/	.	.	.	.	.	.	.	.
8AA/J	.	8e/J	.	.	.	.	.	.	.	.
=28	=28	=28	=28	=28	=28	=28	=28	=28	=28	=28
8BB/L	X 6/	8d/L	.	1ryy	.	1ryy	1ryy	1ryy	.	.
8BB/	.	8d/	.	.	.	.	.	.	.	.
8BB/	.	8d/	.	.	.	.	.	.	.	.
8BB/J	.	8d/J	.	.	.	.	.	.	.	.
8E\L	X #	8e/L	.	.	.	.	.	.	.	.
8E\	.	8e/	.	.	.	.	.	.	.	.
8E\	.	8g#X/	.	.	.	.	.	.	.	.
8E\J	.	8g#/J	.	.	.	.	.	.	.	.
=29	=29	=29	=29	=29	=29	=29	=29	=29	=29	=29
8A\L	.	8a/L	.	1ryy	.	1ryy	1ryy	1ryy	.	.
8A\	.	8a/	.	.	.	.	.	.	.	.
8d\	.	8a/	.	.	.	.	.	.	.	.
8D\J	.	8a/J	.	.	.	.	.	.	.	.
8BB/L	X 6	8g/L	.	.	.	.	.	.	.	.
8BB/	.	8g/	.	.	.	.	.	.	.	.
8BB/	.	8g/	.	.	.	.	.	.	.	.
8BB/J	.	8g/J	.	.	.	.	.	.	.	.
=30	=30	=30	=30	=30	=30	=30	=30	=30	=30	=30
8BB/L	X 6	8g/L	.	1ryy	.	1ryy	1ryy	1ryy	00r	.
8GG/J	.	8g/	.	.	.	.	.	.	.	.
8C/L	.	8g/	.	.	.	.	.	.	.	.
8C/J	.	8g/J	.	.	.	.	.	.	.	.
8D\L	.	8f/L	.	.	.	.	.	.	.	.
8F\J	.	8a/	.	.	.	.	.	.	.	.
8A\L	.	8a/	.	.	.	.	.	.	.	.
8F\J	X 6	8a/J	.	.	.	.	.	.	.	.
!LO:LB:g=original	!	!LO:LB:g=original	!	!	!	!	!	!	!	!
=31	=31	=31	=31	=31	=31	=31	=31	=31	=31	=31
8G\L	.	8d/L	.	1ryy	.	1ryy	1ryy	1ryy	.	.
8F\	.	8d/	.	.	.	.	.	.	.	.
8E\	X 6	8g/	.	.	.	.	.	.	.	.
8F\J	.	8a/J	.	.	.	.	.	.	.	.
!LO:TX:t=P:problem:mixed beam	!	!	!	!	!	!	!	!	!	!
8G\L	X 4	8e/L	.	.	.	.	.	.	.	.
8F\	.	8e/	.	.	.	.	.	.	.	.
8G\	X 3	8d/	.	.	.	.	.	.	.	.
8GG/J	.	8b/J	.	.	.	.	.	.	.	.
=32	=32	=32	=32	=32	=32	=32	=32	=32	=32	=32
!	!	!	!LO:DY:b:t=f.	!	!	!	!	!	!	!
8C/L	.	16cc\LL	f	1ryy	.	1ryy	1ryy	1ryy	.	.
.	.	16dd\	.	.	.	.	.	.	.	.
8C/J	.	16ee\	.	.	.	.	.	.	.	.
.	.	16ff\JJ	.	.	.	.	.	.	.	.
8E\L	X 6	16gg\LL	.	.	.	.	.	.	.	.
.	.	16ee\	.	.	.	.	.	.	.	.
8F\J	.	16dd\	.	.	.	.	.	.	.	.
.	.	16cc\JJ	.	.	.	.	.	.	.	.
8G\L	.	8b\L	.	.	.	.	.	.	.	.
8C\	.	8cc\J	.	.	.	.	.	.	.	.
8C\	.	8r	.	.	.	.	.	.	.	.
8F\J	.	8aa\	.	.	.	.	.	.	.	.
=33	=33	=33	=33	=33	=33	=33	=33	=33	=33	=33
8E\L	X 6	16gg\LL	.	1ryy	.	1ryy	1ryy	1ryy	.	.
.	.	16ee\	.	.	.	.	.	.	.	.
8D\	.	16ff\	.	.	.	.	.	.	.	.
.	.	16dd\JJ	.	.	.	.	.	.	.	.
8C\	.	16ee\LL	.	.	.	.	.	.	.	.
.	.	16cc\	.	.	.	.	.	.	.	.
8F\J	X 6	16dd\	.	.	.	.	.	.	.	.
.	.	16a\JJ	.	.	.	.	.	.	.	.
!LO:TX:t=P:problem:mixed beam	!	!	!	!	!	!	!	!	!	!
!	!	!LO:TX:a:t=P:problem:mixed beam	!	!	!	!	!	!	!	!
8G\L	.	8b\L	.	.	.	.	.	.	.	.
8c\	.	8cc\	.	.	.	.	.	.	.	.
8G\	X 4	8d/	.	.	.	.	.	.	.	.
8GG/J	X 3	8b\J	.	.	.	.	.	.	.	.
=34	=34	=34	=34	=34	=34	=34	=34	=34	=34	=34
!LO:TX:t=P:problem:mixed beam	!	!	!	!	!	!	!	!	!	!
8.c\L	.	16cc\LL	.	1ryy	.	1ryy	1ryy	1ryy	4.ee\	I-
.	.	32dd\L	.	.	.	.	.	.	.	.
.	.	(>32ee\	.	.	.	.	.	.	.	.
.	.	32ff\	.	.	.	.	.	.	.	.
.	.	32gg\	.	.	.	.	.	.	.	.
16C/Jk	.	32aa\)	.	.	.	.	.	.	.	.
.	.	32bb\JJJ	.	.	.	.	.	.	.	.
!LO:TX:a:i:t=Tutti.	!	!	!	!	!	!	!	!	!	!
16C\LL	.	16ccc\LL	.	.	.	.	.	.	.	.
(>32D\L	.	16ccc\	.	.	.	.	.	.	.	.
32E\	.	.	.	.	.	.	.	.	.	.
32F\	.	16ccc\	.	.	.	.	.	.	8ee\	-ra-
32G\	.	.	.	.	.	.	.	.	.	.
32A\	.	16ccc\JJ	.	.	.	.	.	.	.	.
32B\JJJ)	.	.	.	.	.	.	.	.	.	.
!LO:TX:t=P:problem:mixed beam	!	!	!	!	!	!	!	!	!	!
8.c\L	.	16ccc\LL	.	.	.	.	.	.	8.ee\	-sci-
.	.	16ccc\	.	.	.	.	.	.	.	.
.	.	16ccc\	.	.	.	.	.	.	.	.
16C/Jk	.	16ccc\JJ	.	.	.	.	.	.	16ee\	-mi-
!	!	!	!	!	!	!	!	!	!LO:LB:g=original	!
!	!	!LO:LB:g=original	!	!	!	!	!	!	!	!
4C/	.	16ccc\LL	.	.	.	.	.	.	4ee\	-ni
.	.	(>32bb\L	.	.	.	.	.	.	.	.
.	.	32aa\	.	.	.	.	.	.	.	.
.	.	32gg\	.	.	.	.	.	.	.	.
.	.	32ff\	.	.	.	.	.	.	.	.
.	.	32ee\)	.	.	.	.	.	.	.	.
.	.	32dd\JJJ	.	.	.	.	.	.	.	.
=35	=35	=35	=35	=35	=35	=35	=35	=35	=35	=35
8c\L	.	8cc\L	.	1ryy	.	1ryy	1ryy	1ryy	8ee\	&
8A\	.	8aa\	.	.	.	.	.	.	8ee\	no-
8F#X\	6 5	8aa\	.	.	.	.	.	.	8dd\	-li-
8G\J	.	8gg\J	.	.	.	.	.	.	8dd\	-te
8r	.	8r	.	.	.	.	.	.	8r	.
8E\	.	8gg\L	.	.	.	.	.	.	8ee\	pec-
!LO:LB:g=original	!	!	!	!	!	!	!	!	!	!
8C#X/L	6 5	8gg\	.	.	.	.	.	.	8ee\	-ca-
8D/J	X #	8ff#X\J	.	.	.	.	.	.	8dd\	-re
=36	=36	=36	=36	=36	=36	=36	=36	=36	=36	=36
8r	.	16r	.	1ryy	.	1ryy	1ryy	1ryy	8r	.
.	.	16dd\LL	.	.	.	.	.	.	.	.
8D\L	X #	16dd\	.	.	.	.	.	.	8dd\	quae
.	.	16dd\JJ	.	.	.	.	.	.	.	.
8E\	X 6	16cc\LL	.	.	.	.	.	.	16cc\	di-
.	.	16cc\	.	.	.	.	.	.	16cc\	-ci-
8E\J	.	16cc\	.	.	.	.	.	.	16cc\	-tis
.	.	16cc\JJ	.	.	.	.	.	.	16cc\	in
!LO:TX:t=P:problem:mixed beam	!	!	!	!	!	!	!	!	!	!
8F#X\L	6 5	16dd\LL	.	.	.	.	.	.	8dd\	cor-
.	.	16dd\	.	.	.	.	.	.	.	.
8F#\	.	16dd\	.	.	.	.	.	.	16dd\	-di-
.	.	16dd\JJ	.	.	.	.	.	.	16dd\	-bus
8G\	.	8dd\L	.	.	.	.	.	.	8dd\	ves-
8GG/J	.	8dd\J	.	.	.	.	.	.	8dd\	-tris
=37	=37	=37	=37	=37	=37	=37	=37	=37	=37	=37
8D\L	X n	16ff\LL	.	1ryy	.	1ryy	1ryy	1ryy	8ff\	in
.	.	16ff\	.	.	.	.	.	.	.	.
8d\	.	16ff\	.	.	.	.	.	.	8ff\	cu-
.	.	16ff\JJ	.	.	.	.	.	.	.	.
8B\	X 6	16gg\LL	.	.	.	.	.	.	8ff\	-bi-
.	.	16gg\	.	.	.	.	.	.	.	.
8c\J	.	16gg\	.	.	.	.	.	.	16ee\	-li-
.	.	16gg\JJ	.	.	.	.	.	.	16ee\	-bus
!	!	!	!	!	!	!	!	!	!LO:LB:g=original	!
8A\L	6 5	16ff\LL	.	.	.	.	.	.	8ee\	ves-
.	.	16ff\	.	.	.	.	.	.	.	.
8B\	.	16ff\	.	.	.	.	.	.	8dd\	-tris
.	.	16ff\JJ	.	.	.	.	.	.	.	.
8G\	6 5	16ee\LL	.	.	.	.	.	.	8dd\	com-
.	.	16ee\	.	.	.	.	.	.	.	.
8A\J	.	16ee\	.	.	.	.	.	.	8cc\	-pun-
.	.	16ee\JJ	.	.	.	.	.	.	.	.
!	!	!LO:LB:g=original	!	!	!	!	!	!	!	!
=38	=38	=38	=38	=38	=38	=38	=38	=38	=38	=38
8F\L	6 5	16dd\LL	.	1ryy	.	1ryy	1ryy	1ryy	8cc\	-gi-
.	.	16dd\	.	.	.	.	.	.	.	.
8G\	.	16dd\	.	.	.	.	.	.	16b\	-mi-
.	.	16dd\JJ	.	.	.	.	.	.	16b\	-ni
8E\	X 6	16cc\LL	.	.	.	.	.	.	8cc\	com-
.	.	16cc\	.	.	.	.	.	.	.	.
8C\J	.	16cc\	.	.	.	.	.	.	8cc\	-pun-
.	.	16ee\JJ	.	.	.	.	.	.	.	.
[>2G\	5 3	16dd\LL	.	.	.	.	.	.	4b\	-gi-
.	6 4	16dd\	.	.	.	.	.	.	.	.
.	.	16dd\	.	.	.	.	.	.	.	.
.	.	16dd\JJ	.	.	.	.	.	.	.	.
.	.	16ee\LL	.	.	.	.	.	.	[>4cc\	.
.	.	16ee\	.	.	.	.	.	.	.	.
.	.	16ee\	.	.	.	.	.	.	.	.
.	.	16ee\JJ	.	.	.	.	.	.	.	.
=39	=39	=39	=39	=39	=39	=39	=39	=39	=39	=39
2G\]	5 4	8dd\L	.	1ryy	.	1ryy	1ryy	1ryy	4cc\]	.
.	X 3	8dd\	.	.	.	.	.	.	.	.
.	.	8dd\	.	.	.	.	.	.	8.b\	.
.	.	8dd\J	.	.	.	.	.	.	.	.
.	.	.	.	.	.	.	.	.	16b\	-mi-
!LO:TX:a:i:t=ſolo	!	!	!	!	!	!	!	!	!	!
8C/L	.	16cc\LL	.	.	.	.	.	.	4cc\	-ni
.	.	16dd\	.	.	.	.	.	.	.	.
8C/J	.	16ee\	.	.	.	.	.	.	.	.
.	.	16ff\JJ	.	.	.	.	.	.	.	.
8E\L	X 6	16gg\LL	.	.	.	.	.	.	4r	.
.	.	16ee\	.	.	.	.	.	.	.	.
8F\J	.	16dd\	.	.	.	.	.	.	.	.
.	.	16cc\JJ	.	.	.	.	.	.	.	.
=40	=40	=40	=40	=40	=40	=40	=40	=40	=40	=40
!LO:TX:t=P:problem:mixed beam	!	!	!	!	!	!	!	!	!	!
8G\L	.	8b\L	.	1ryy	.	1ryy	1ryy	1ryy	1r	.
8C/J	.	8cc\J	.	.	.	.	.	.	.	.
!LO:TX:t=P:problem:mixed beam	!	!	!	!	!	!	!	!	!	!
8C/L	.	8r	.	.	.	.	.	.	.	.
8F\J	.	8aa\	.	.	.	.	.	.	.	.
8E\L	X 6	16gg\LL	.	.	.	.	.	.	.	.
.	.	16ee\	.	.	.	.	.	.	.	.
8D\	.	16ff\	.	.	.	.	.	.	.	.
.	.	16dd\JJ	.	.	.	.	.	.	.	.
8C\	.	16ee\LL	.	.	.	.	.	.	.	.
.	.	16cc\	.	.	.	.	.	.	.	.
8F\J	.	16dd\	.	.	.	.	.	.	.	.
.	.	16a\JJ	.	.	.	.	.	.	.	.
=41	=41	=41	=41	=41	=41	=41	=41	=41	=41-	=41
!	!	!LO:TX:t=P:problem:mixed beam	!	!	!	!	!	!	!	!
8G\L	.	8b\L	.	1ryy	.	1ryy	1ryy	1ryy	2r	.
8c\J	.	8cc\	.	.	.	.	.	.	.	.
!LO:LB:g=original	!	!	!	!	!	!	!	!	!	!
!LO:TX:t=P:problem:mixed beam	!	!	!	!	!	!	!	!	!	!
8G\L	.	8d/	.	.	.	.	.	.	.	.
8GG/J	.	8b\J	.	.	.	.	.	.	.	.
!	!	!LO:LB:g=original	!	!	!	!	!	!	!	!
!LO:TX:t=P:problem:mixed beam	!	!	!	!	!	!	!	!	!	!
8C\L	.	8cc\L	.	.	.	.	.	.	4r	.
16c\L	.	16cc\L	.	.	.	.	.	.	.	.
16d\JJ	.	16dd\JJ	.	.	.	.	.	.	.	.
16c\LL	.	16cc\LL	.	.	.	.	.	.	8r	.
16B-X\	.	16b-X\	.	.	.	.	.	.	.	.
16A\	.	16a\	.	.	.	.	.	.	8cc\	Sa-
16G\JJ	.	16g\JJ	.	.	.	.	.	.	.	.
=42	=42	=42	=42	=42	=42	=42	=42	=42	=42	=42
8F\L	.	8f/L	.	1ryy	.	1ryy	1ryy	1ryy	8.a\L	-cri-
8C\	.	8f/	.	.	.	.	.	.	.	.
.	.	.	.	.	.	.	.	.	(>32b-X\LL	.
.	.	.	.	.	.	.	.	.	32cc\JJJ)	.
8G\	6 -	8e/	.	.	.	.	.	.	8.b-\L	-fi-
8C\J	.	8e/J	.	.	.	.	.	.	.	.
.	.	.	.	.	.	.	.	.	(>32cc\LL	.
.	.	.	.	.	.	.	.	.	32dd\JJJ)	.
!	!	!	!	!	!	!	!	!	!LO:LB:g=original	!
8A\L	X 6	8f/L	.	.	.	.	.	.	8cc\	-ca-
16F\L	.	16a/L	.	.	.	.	.	.	8f/	-te
16G\JJ	.	16g/JJ	.	.	.	.	.	.	.	.
8A\L	.	8f/L	.	.	.	.	.	.	8cc\	Sa-
8F\J	.	8a/J	.	.	.	.	.	.	8ff\	-cri-
=43	=43	=43	=43	=43	=43	=43	=43	=43	=43	=43
8BB-X/L	.	8f/L	.	1ryy	.	1ryy	1ryy	1ryy	8.dd\	-fi-
8D/J	.	8f/	.	.	.	.	.	.	.	.
.	.	.	.	.	.	.	.	.	16dd\	-ci-
8F\L	.	8a/	.	.	.	.	.	.	8cc\	-um
8B-X\J	.	8f/J	.	.	.	.	.	.	8dd\	jus-
!LO:TX:t=P:problem:mixed beam	!	!	!	!	!	!	!	!	!	!
8A\L	X 6	8f/L	.	.	.	.	.	.	8.cc\L	-ti-
8F\	.	8f/	.	.	.	.	.	.	.	.
.	.	.	.	.	.	.	.	.	(>32b-X\LL	.
.	.	.	.	.	.	.	.	.	32a\JJJ)	.
8G\	7 -	8f/	.	.	.	.	.	.	8.b-\	.
8C/J	X 7	8e/J	.	.	.	.	.	.	.	.
.	.	.	.	.	.	.	.	.	16a\	-ti-
=44	=44	=44	=44	=44	=44	=44	=44	=44	=44	=44
8F\L	.	8f/L	.	1ryy	.	1ryy	1ryy	1ryy	4a\	-ae
8F\	.	8f/	.	.	.	.	.	.	.	.
8F\	.	8f/	.	.	.	.	.	.	8a\	&
8F\J	.	8f/J	.	.	.	.	.	.	8a\	spe-
8F\L	X 6	8d/L	.	.	.	.	.	.	16a\LL	-ra-
.	.	.	.	.	.	.	.	.	16g\	.
8F\	.	8d/	.	.	.	.	.	.	16f\	.
.	.	.	.	.	.	.	.	.	16e\JJ	.
8F\	.	8d/	.	.	.	.	.	.	8d/	-te
8F\J	.	8d/J	.	.	.	.	.	.	8a\	in
=45	=45	=45	=45	=45	=45	=45	=45	=45	=45	=45
8G\L	X n	8d/L	.	1ryy	.	1ryy	1ryy	1ryy	16bn\	Do-
.	.	.	.	.	.	.	.	.	16a\	-mi-
8G\	.	8d/	.	.	.	.	.	.	8b\	-no,
8G\	.	8d/	.	.	.	.	.	.	8b\	mul-
8G\J	.	8d/J	.	.	.	.	.	.	8b\	-ti
!	!	!	!	!	!	!	!	!	!LO:LB:g=original	!
8G\L	X 6	8d/L	.	.	.	.	.	.	16b\LL	di-
.	.	.	.	.	.	.	.	.	16a\JJ	.
8G\	.	8d/	.	.	.	.	.	.	16g/LL	-cunt
.	.	.	.	.	.	.	.	.	16f/JJ	.
8G\	.	8e/	.	.	.	.	.	.	8e/	quis
8G\J	.	8e/J	.	.	.	.	.	.	8b\	os-
!LO:LB:g=original	!	!	!	!	!	!	!	!	!	!
=46	=46	=46	=46	=46	=46	=46	=46	=46	=46	=46
!LO:TX:t=P:problem:mixed beam	!	!	!	!	!	!	!	!	!	!
8A\L	.	8e/L	.	1ryy	.	1ryy	1ryy	1ryy	16cc\LL	-ten-
.	.	.	.	.	.	.	.	.	16b\JJ	.
8A\	.	8e/	.	.	.	.	.	.	8cc\	-dit
8C/	.	8g/	.	.	.	.	.	.	8ee\	quis
8C/J	.	8g/J	.	.	.	.	.	.	8ee\	os-
8F\L	X 7	8a/L	.	.	.	.	.	.	(>8ee\L	-ten-
8F\	X 6_	8a/	.	.	.	.	.	.	8dd\J)	.
8F#X\	.	8a/	.	.	.	.	.	.	(>8dd\L	-dit
8F#\J	X 5	8a/J	.	.	.	.	.	.	8cc\J)	.
=47	=47	=47	=47	=47	=47	=47	=47	=47	=47	=47
!LO:TX:t=P:problem:mixed beam	!	!	!	!	!	!	!	!	!	!
8G\L	.	8d/L	.	1ryy	.	1ryy	1ryy	1ryy	8b\	no-
8C\	.	8e/J	.	.	.	.	.	.	16cc\LL	-bis
.	.	.	.	.	.	.	.	.	16dd\JJ	.
!	!	!LO:TX:t=P:problem:mixed beam	!	!	!	!	!	!	!	!
8G\	X 4	8d/L	.	.	.	.	.	.	8cc\L	.
8GG/J	X 3	8b\J	.	.	.	.	.	.	8b\J	bo-
8C/L	.	16cc\LL	.	.	.	.	.	.	4cc\	-na
.	.	16dd\	.	.	.	.	.	.	.	.
8C/J	.	16ee\	.	.	.	.	.	.	.	.
.	.	16ff\JJ	.	.	.	.	.	.	.	.
8E\L	X 6	16gg\LL	.	.	.	.	.	.	4r	.
.	.	16ee\	.	.	.	.	.	.	.	.
8F\J	.	16dd\	.	.	.	.	.	.	.	.
.	.	16cc\JJ	.	.	.	.	.	.	.	.
=48	=48	=48	=48	=48	=48	=48	=48	=48	=48	=48
8G\L	.	8b\L	.	1ryy	.	1ryy	1ryy	1ryy	00r	.
8C\	.	8cc\J	.	.	.	.	.	.	.	.
8C\	.	8r	.	.	.	.	.	.	.	.
8F\J	.	8aa\	.	.	.	.	.	.	.	.
8E\L	X 6	16gg\LL	.	.	.	.	.	.	.	.
.	.	16ee\	.	.	.	.	.	.	.	.
8D\	.	16ff\	.	.	.	.	.	.	.	.
.	.	16dd\JJ	.	.	.	.	.	.	.	.
8C\	.	16ee\LL	.	.	.	.	.	.	.	.
.	.	16cc\	.	.	.	.	.	.	.	.
8F\J	.	16dd\	.	.	.	.	.	.	.	.
.	.	16a\JJ	.	.	.	.	.	.	.	.
=49	=49	=49	=49	=49	=49	=49	=49	=49	=49	=49
!LO:TX:t=P:problem:mixed beam	!	!LO:TX:t=P:problem:mixed beam	!	!	!	!	!	!	!	!
8G\L	.	8b\L	.	1ryy	.	1ryy	1ryy	1ryy	.	.
8c\	.	8cc\	.	.	.	.	.	.	.	.
8G\	.	8d/	.	.	.	.	.	.	.	.
8GG/J	.	8b\J	.	.	.	.	.	.	.	.
!	!	!LO:TX:t=P:problem:mixed beam	!	!	!	!	!	!	!	!
4C/	.	8cc\L	.	.	.	.	.	.	.	.
.	.	8g/J	.	.	.	.	.	.	.	.
!	!	!LO:TX:t=P:problem:mixed beam	!	!	!	!	!	!	!	!
8r	.	8cc\L	.	.	.	.	.	.	.	.
8GG/	.	8g/J	.	.	.	.	.	.	.	.
=50	=50	=50	=50	=50	=50	=50	=50	=50	=50	=50
8C/L	.	8e/L	.	1ryy	.	1ryy	1ryy	1ryy	.	.
8C/	.	8e/	.	.	.	.	.	.	.	.
8C/	.	8e/	.	.	.	.	.	.	.	.
8C/J	.	8e/J	.	.	.	.	.	.	.	.
!	!	!LO:PB:g=original	!	!	!	!	!	!	!	!
8C/L	.	8e/L	.	.	.	.	.	.	.	.
8C/	.	8e/	.	.	.	.	.	.	.	.
8C/	X -	8e/	.	.	.	.	.	.	.	.
8C/J	X 7	8e/J	.	.	.	.	.	.	.	.
=51	=51	=51	=51	=51	=51	=51	=51	=51	=51	=51
8C#X/L	X 7	8g/L	.	8ee\L	.	1ryy	1ryy	1ryy	.	.
8C#/J	.	8g/	.	8ee\	.	.	.	.	.	.
!LO:LB:g=original	!	!	!	!	!	!	!	!	!	!
8C#X/L	X 6	8a/	.	8ee\	.	.	.	.	.	.
8C#/J	X 5	8a/J	.	8ee\J	.	.	.	.	.	.
8D/L	.	8a/L	.	8dd\L	.	.	.	.	.	.
8D/	.	8a/	.	8dd\	.	.	.	.	.	.
8D/	.	8f/	.	8dd\	.	.	.	.	.	.
8D/J	.	8f/J	.	8dd\J	.	.	.	.	.	.
=52	=52	=52	=52	=52	=52	=52	=52	=52	=52	=52
8D/L	.	8f/L	.	8dd\L	.	1ryy	1ryy	1ryy	00r	.
8D/	.	8f/	.	8dd\	.	.	.	.	.	.
8D/	.	8f/	.	8dd\	.	.	.	.	.	.
8D/J	.	8f/J	.	8dd\J	.	.	.	.	.	.
8D/L	4# 2	8e/L	.	8bn\L	.	.	.	.	.	.
8D/	.	8e/	.	8b\	.	.	.	.	.	.
8C/	X 6	8e/	.	8cc\	.	.	.	.	.	.
8BB/J	.	8e/J	.	8cc\J	.	.	.	.	.	.
=53	=53	=53	=53	=53	=53	=53	=53	=53	=53	=53
8AA/L	.	8e/L	.	8cc\L	.	1ryy	1ryy	1ryy	.	.
8AA/	.	8e/	.	8cc\	.	.	.	.	.	.
8AA/	.	8e/	.	8cc\	.	.	.	.	.	.
8AA/J	.	8a/J	.	8cc\J	.	.	.	.	.	.
!LO:TX:t=P:problem:mixed beam	!	!	!	!	!	!	!	!	!	!
8D\L	6 5	8a/L	.	8b\L	.	.	.	.	.	.
8D#X\	.	8a/	.	8b\	.	.	.	.	.	.
8E\	X 4	8g#X/	.	8b\	.	.	.	.	.	.
8EE/J	X #	8g#/J	.	8b\J	.	.	.	.	.	.
=54	=54	=54	=54	=54	=54	=54	=54	=54	=54	=54
8AA/L	.	16a\LL	.	16a\LL	.	1ryy	1ryy	1ryy	.	.
!	!	!	!	!	!LO:DY:b:t=f.	!	!	!	!	!
.	.	16b\	.	16b\	f	.	.	.	.	.
8AA/	.	16cc\	.	16cc\	.	.	.	.	.	.
.	.	16dd\JJ	.	16dd\JJ	.	.	.	.	.	.
8C/	X 6	16ee\LL	.	16ee\LL	.	.	.	.	.	.
.	.	16cc\	.	16cc\	.	.	.	.	.	.
8D/J	.	16b\	.	16b\	.	.	.	.	.	.
.	.	16a\JJ	.	16a\JJ	.	.	.	.	.	.
8E/L	X #	8g#X/L	.	8g#X/L	.	.	.	.	.	.
8AA/	.	8a/J	.	8a/J	.	.	.	.	.	.
8AA/	.	8r	.	8r	.	.	.	.	.	.
8D/J	.	8ff\	.	8ff\	.	.	.	.	.	.
!	!	!LO:LB:g=original	!	!	!	!	!	!	!	!
=55	=55	=55	=55	=55	=55	=55	=55	=55	=55	=55
8C/L	X 6	16ee\LL	.	16ee\LL	.	1ryy	1ryy	1ryy	.	.
.	.	16cc\	.	16cc\	.	.	.	.	.	.
8BB/	.	16dd\	.	16dd\	.	.	.	.	.	.
.	.	16b\JJ	.	16b\JJ	.	.	.	.	.	.
8AA/	.	16cc\LL	.	16cc\LL	.	.	.	.	.	.
.	.	16a\	.	16a\	.	.	.	.	.	.
8D/J	.	16b\	.	16b\	.	.	.	.	.	.
.	.	16f#X\JJ	.	16f#X\JJ	.	.	.	.	.	.
!LO:TX:t=P:problem:mixed beam	!	!	!	!	!	!	!	!	!	!
!	!	!	!	!LO:LB:g=original	!	!	!	!	!	!
8E\L	X #	8g#X/L	.	8g#X/L	.	.	.	.	.	.
8A\	.	8a/	.	8a/	.	.	.	.	.	.
8E\	X 4	8B/	.	8B/	.	.	.	.	.	.
8EE/J	X #	8g#X/J	.	8g#X/J	.	.	.	.	.	.
!LO:LB:g=original	!	!	!	!	!	!	!	!	!	!
=56	=56	=56	=56	=56	=56	=56	=56	=56	=56	=56
8AA/L	.	8a/L	.	8a/L	.	1ryy	1ryy	1ryy	00r	.
16C/L	X 6	16e/L	.	16e/L	.	.	.	.	.	.
16BB/JJ	.	16c/JJ	.	16c/JJ	.	.	.	.	.	.
!LO:TX:t=P:problem:mixed beam	!	!	!	!	!	!	!	!	!	!
8AA/L	.	8A/L	.	8A/L	.	.	.	.	.	.
8E\J	X #	8a/J	.	8a/J	.	.	.	.	.	.
!	!	!	!LO:DY:b:t=p&colon;	!	!LO:DY:b:t=p&colon;	!	!	!	!	!
8C/L	X 6	8e/L	p	8a/L	p	.	.	.	.	.
8AA/J	.	8e/J	.	8a/	.	.	.	.	.	.
8E\L	X 4	8c/L	.	8a/	.	.	.	.	.	.
8E\J	X #	8B/J	.	8g#X/J	.	.	.	.	.	.
=57	=57	=57	=57	=57	=57	=57	=57	=57	=57	=57
16r	.	16r	.	16r	.	1ryy	1ryy	1ryy	.	.
!LO:TX:a:t=|:problem	!	!	!	!	!	!	!	!	!	!
16A\LL	.	16a/LL	.	16a/LL	.	.	.	.	.	.
!LO:TX:a:t=|:problem	!	!	!	!	!	!	!	!	!	!
16E\	.	16e/	.	16e/	.	.	.	.	.	.
!LO:TX:a:t=|:problem	!	!	!	!	!	!	!	!	!	!
16C\JJ	.	16c/JJ	.	16c/JJ	.	.	.	.	.	.
!LO:TX:t=P:problem:mixed beam	!	!LO:TX:t=P:problem:mixed beam	!	!LO:TX:t=P:problem:mixed beam	!	!	!	!	!	!
8AA/L	.	8A/L	.	8A/L	.	.	.	.	.	.
8A\J	.	8cc\J	.	8cc\J	.	.	.	.	.	.
8C/L	X 6	8cc\L	.	8cc/L	.	.	.	.	.	.
8C/	.	8a\J	.	8a/	.	.	.	.	.	.
8D/	.	8a/L	.	8a/	.	.	.	.	.	.
8E/J	X #	8g#X/J	.	8g#X/J	.	.	.	.	.	.
=58	=58	=58	=58	=58	=58	=58	=58	=58	=58	=58
2F\	X 7	4a/	.	2a/	.	1ryy	1ryy	1ryy	.	.
.	X 6	4d/	.	.	.	.	.	.	.	.
16r	.	16r	.	16g#X/LL	.	.	.	.	.	.
16E\LL	.	16e/LL	.	16e/	.	.	.	.	.	.
16G#X\	.	16g#X/	.	16g#/	.	.	.	.	.	.
16B\JJ	.	16b/JJ	.	16b/JJ	.	.	.	.	.	.
!	!	!LO:TX:t=P:problem:mixed beam	!	!	!	!	!	!	!	!
8e\L	X #	8ee\L	.	8ee\L	.	.	.	.	.	.
8E\J	.	8gn/J	.	8b\J	.	.	.	.	.	.
=59	=59	=59	=59	=59	=59	=59	=59	=59	=59	=59
!	!	!	!	!	!	!	!	!	!LO:TX:a:t=P:problem:błąd renderowania - nie powinna wyświetlać się podwójna kreska taktowa, lecz pojedynczał	!
8E\L	X n	8g/L	.	8b\L	.	1ryy	1ryy	1ryy	.	.
!	!	!LO:TX:b:t=P:problem:# below	!	!	!	!	!	!	!	!
8D#X\	X 6	8f#X/	.	8b\	.	.	.	.	.	.
8E\	.	8g/	.	8b\	.	.	.	.	.	.
8E\J	.	8g/J	.	8b\J	.	.	.	.	.	.
!	!	!LO:LB:g=original	!	!	!	!	!	!	!	!
8E\L	.	8e/L	.	8b\L	.	.	.	.	.	.
8A\	.	8e/	.	8cc\	.	.	.	.	.	.
8G\	X 6	8d#X/	.	8b\	.	.	.	.	.	.
8F#X\J	.	8d#/J	.	8a\J	.	.	.	.	.	.
=60	=60	=60-	=60	=60	=60	=60	=60	=60	=60	=60
!LO:TX:t=P:problem:mixed beam	!	!LO:N:vis=16	!	!	!	!	!	!	!	!
!	!	!	!LO:DY:b:t=f.	!	!	!	!	!	!	!
8E\L	.	8ee\L	f	8g/L	.	1ryy	1ryy	1ryy	0r	.
!	!	!LO:N:vis=16	!	!	!	!	!	!	!	!
8G\	.	8ff#X\	.	8g/	.	.	.	.	.	.
!	!	!LO:N:vis=16	!	!	!	!	!	!	!	!
8B\	X 4	8gg\	.	8f#X/	.	.	.	.	.	.
!	!	!LO:N:vis=16	!	!	!	!	!	!	!	!
8BB/J	X #	8aa\J	.	8f#/J	.	.	.	.	.	.
!	!	!LO:N:vis=16	!	!	!	!	!	!	!	!
!	!	!	!	!LO:LB:g=original	!	!	!	!	!	!
!	!	!	!	!	!LO:DY:b:t=f.	!	!	!	!	!
8E\L	.	8bb\L	.	16ee\LL	f	.	.	.	.	.
.	.	.	.	16ff#X\	.	.	.	.	.	.
!	!	!LO:N:vis=16	!	!	!	!	!	!	!	!
8E\	.	8gg\	.	16gg\	.	.	.	.	.	.
.	.	.	.	16aa\JJ	.	.	.	.	.	.
!	!	!LO:N:vis=16	!	!	!	!	!	!	!	!
8G\	X 6	8ff#\	.	16bb\LL	.	.	.	.	.	.
.	.	.	.	16gg\	.	.	.	.	.	.
!	!	!LO:N:vis=16	!	!	!	!	!	!	!	!
8A\J	.	8ee\J	.	16ff#X\	.	.	.	.	.	.
.	.	.	.	16ee\JJ	.	.	.	.	.	.
!LO:PB:g=original	!	!	!	!	!	!	!	!	!	!
=61	=61	=61	=61	=61	=61	=61	=61	=61	=61	=61
8B\L	X #	8dd#X\L	.	8dd#X\L	.	1ryy	1ryy	1ryy	.	.
8E\	.	8ee\J	.	8ee\J	.	.	.	.	.	.
8E\	.	8r	.	8r	.	.	.	.	.	.
8A\J	.	8ccc\	.	8ccc\	.	.	.	.	.	.
8G\L	X 6	16bb\LL	.	16bb\LL	.	.	.	.	.	.
.	.	16gg\	.	16gg\	.	.	.	.	.	.
8F#X\	.	16aa\	.	16aa\	.	.	.	.	.	.
.	.	16ff#X\JJ	.	16ff#X\JJ	.	.	.	.	.	.
8E\	.	16gg\LL	.	16gg\LL	.	.	.	.	.	.
.	.	16ee\	.	16ee\	.	.	.	.	.	.
8A\J	X #	16ff#X\	.	16ff#\	.	.	.	.	.	.
.	.	16cc#X\JJ	.	16cc#X\JJ	.	.	.	.	.	.
=62	=62	=62	=62	=62	=62	=62	=62	=62	=62-	=62
!LO:TX:t=P:problem:mixed beam	!	!LO:TX:t=P:problem:mixed beam	!	!LO:TX:t=P:problem:mixed beam	!	!	!	!	!	!
8B\L	X #	8dd#X\L	.	8dd#X\L	.	1ryy	1ryy	1ryy	2r	.
8E\	.	8ee\	.	8ee\	.	.	.	.	.	.
!	!	!LO:TX:b:t=P:problem:# below	!	!	!	!	!	!	!	!
8B\	X 4	8f#X/	.	8f#X/	.	.	.	.	.	.
8BB/J	X #	8dd#\J	.	8dd#\J	.	.	.	.	.	.
4E\	.	4ee\	.	4ee\	.	.	.	.	4r	.
*clefC4	*	*	*	*	*	*	*	*	*	*
4e\	.	4r	.	4r	.	.	.	.	4b\	In
=63	=63	=63	=63	=63	=63	=63	=63	=63	=63	=63
2d#X\	X 7	0r	.	0r	.	1ryy	1ryy	1ryy	8cc\	pa-
.	X 6	.	.	.	.	.	.	.	8cc\	-ce
!	!	!	!	!	!	!	!	!	!LO:LB:g=original	!
.	X 5	.	.	.	.	.	.	.	8b\	in
.	.	.	.	.	.	.	.	.	8a\	id-
4dn\	4# 2	.	.	.	.	.	.	.	4g#X\	-ip-
4c#X\	X 6	.	.	.	.	.	.	.	4a\	-sum
=64	=64	=64	=64	=64	=64	=64	=64	=64	=64	=64
2c#X\	X 6	.	.	.	.	1ryy	1ryy	1ryy	8.a\	dor-
.	X 5	.	.	.	.	.	.	.	16a\	-mi-
.	.	.	.	.	.	.	.	.	8a\	-am
.	.	.	.	.	.	.	.	.	8g/	&
4cn\	4# 2	.	.	.	.	.	.	.	4f#X/	re-
4B\	X 6	.	.	.	.	.	.	.	4g/	-qui-
=65	=65	=65	=65	=65	=65	=65	=65	=65	=65	=65
4A/	X 6/	1r	.	1r	.	1ryy	1ryy	1ryy	4a\	-es-
4G/	.	.	.	.	.	.	.	.	4b\	.
[<2D/	X 4#	.	.	.	.	.	.	.	8cc\L	.
.	.	.	.	.	.	.	.	.	8a\J	.
.	.	.	.	.	.	.	.	.	8b\L	.
.	.	.	.	.	.	.	.	.	16a\L	.
.	.	.	.	.	.	.	.	.	16g\JJ	.
=66	=66	=66-	=66	=66-	=66	=66	=66	=66	=66	=66
*	*reverse	*	*	*	*	*	*	*	*	*
2D/]	X 4#	2r	.	2r	.	1ryy	1ryy	1ryy	2a\	.
*	*Xreverse	*	*	*	*	*	*	*	*	*
*clefF4	*	*	*	*	*	*	*	*	*	*
8G\L	.	4r	.	4r	.	.	.	.	4g\	-cam
8G\	.	.	.	.	.	.	.	.	.	.
!	!	!	!	!	!LO:DY:b:t=p&colon;	!	!	!	!	!
8G\	.	8dd\L	.	8dd\L	p	.	.	.	4r	.
8G\J	.	8b\J	.	8dd\J	.	.	.	.	.	.
!LO:LB:g=original	!	!	!	!	!	!	!	!	!	!
=67	=67	=67	=67	=67	=67	=67	=67	=67	=67	=67
8G\L	.	8b/L	.	8dd\L	.	1ryy	1ryy	1ryy	00r	.
8G\	.	8b/	.	8dd\	.	.	.	.	.	.
8G\	.	8b/	.	8dd\	.	.	.	.	.	.
8G\J	.	8b/J	.	8dd\J	.	.	.	.	.	.
!	!	!LO:LB:g=original	!	!	!	!	!	!	!	!
8E\L	X 6	8g/L	.	8cc\L	.	.	.	.	.	.
8E\J	.	8g/	.	8cc\	.	.	.	.	.	.
8BB/L	X 6	8g/	.	8dd\	.	.	.	.	.	.
8BB/J	X 5n	8g/J	.	8dd\J	.	.	.	.	.	.
!	!	!	!	!LO:LB:g=original	!	!	!	!	!	!
=68	=68	=68	=68	=68	=68	=68	=68	=68	=68	=68
8C/L	X 4	8g/L	.	8dd\L	.	1ryy	1ryy	1ryy	.	.
8C/	X 3	8g/	.	8cc\	.	.	.	.	.	.
8C/	.	8g/	.	8cc\	.	.	.	.	.	.
8C/J	.	8g/J	.	8cc\J	.	.	.	.	.	.
8E\L	X 6	8cc\L	.	8gg\L	.	.	.	.	.	.
8E\	.	8cc\	.	8gg\	.	.	.	.	.	.
8E\	.	8cc\	.	8gg\	.	.	.	.	.	.
8E\J	.	8cc\J	.	8gg\J	.	.	.	.	.	.
=69	=69	=69	=69	=69	=69	=69	=69	=69	=69	=69
8F\L	.	8cc\L	.	8ff\L	.	1ryy	1ryy	1ryy	.	.
8F\	.	8cc\	.	8ff\	.	.	.	.	.	.
8F\	.	8cc\	.	8ff\	.	.	.	.	.	.
8F\J	.	8cc\J	.	8ff\J	.	.	.	.	.	.
8F\L	X 6	8dd\L	.	8aa\L	.	.	.	.	.	.
8F\	.	8dd\	.	8aa\	.	.	.	.	.	.
8F\	.	8dd\	.	8aa\	.	.	.	.	.	.
8F\J	.	8dd\J	.	8aa\J	.	.	.	.	.	.
=70	=70	=70	=70	=70	=70	=70	=70	=70	=70	=70
8G\L	.	8dd\L	.	8gg\L	.	1ryy	1ryy	1ryy	.	.
8c\	.	8cc\	.	8ee\	.	.	.	.	.	.
8G\	.	8b\	.	8dd\	.	.	.	.	.	.
8A\J	X 6/	8cc\J	.	8cc\J	.	.	.	.	.	.
!LO:TX:t=P:problem:mixed beam	!	!	!	!	!	!	!	!	!	!
8G\L	.	8e/L	.	8cc\L	.	.	.	.	.	.
8G\	.	8e/	.	8cc\	.	.	.	.	.	.
8GG/	.	8d/	.	8b\	.	.	.	.	.	.
8GG/J	.	8d/J	.	8b\J	.	.	.	.	.	.
=71	=71	=71	=71	=71	=71	=71	=71	=71	=71	=71
!	!	!	!LO:DY:b:t=f.	!	!	!	!	!	!	!
8C/L	.	16cc\LL	f	16cc\LL	.	1ryy	1ryy	1ryy	0r	.
!	!	!	!	!	!LO:DY:b:t=f.	!	!	!	!	!
.	.	16dd\	.	16dd\	f	.	.	.	.	.
8C/J	.	16ee\	.	16ee\	.	.	.	.	.	.
.	.	16ff\JJ	.	16ff\JJ	.	.	.	.	.	.
8E\L	X 6	16gg\LL	.	16gg\LL	.	.	.	.	.	.
.	.	16ee\	.	16ee\	.	.	.	.	.	.
8F\J	.	16dd\	.	16dd\	.	.	.	.	.	.
.	.	16cc\JJ	.	16cc\JJ	.	.	.	.	.	.
!LO:TX:t=P:problem:mixed beam	!	!	!	!	!	!	!	!	!	!
8G\L	.	8b\L	.	8b\L	.	.	.	.	.	.
8C/	.	8cc\J	.	8cc\J	.	.	.	.	.	.
8C/	.	8r	.	8r	.	.	.	.	.	.
8F/J	.	8aa\	.	8aa\	.	.	.	.	.	.
!LO:LB:g=original	!	!	!	!	!	!	!	!	!	!
=72	=72	=72	=72	=72	=72	=72	=72	=72	=72	=72
8E\L	.	16gg\LL	.	16gg\LL	.	1ryy	1ryy	1ryy	.	.
.	.	16ee\	.	16ee\	.	.	.	.	.	.
8D\	.	16ff\	.	16ff\	.	.	.	.	.	.
.	.	16dd\JJ	.	16dd\JJ	.	.	.	.	.	.
!	!	!LO:LB:g=original	!	!	!	!	!	!	!	!
8C\	.	16ee\LL	.	16ee\LL	.	.	.	.	.	.
.	.	16cc\	.	16cc\	.	.	.	.	.	.
8F\J	.	16dd\	.	16dd\	.	.	.	.	.	.
.	.	16a\JJ	.	16a\JJ	.	.	.	.	.	.
!	!	!	!	!LO:LB:g=original	!	!	!	!	!	!
!LO:TX:t=P:problem:mixed beam	!	!LO:TX:t=P:problem:mixed beam	!	!LO:TX:t=P:problem:mixed beam	!	!	!	!	!	!
8G\L	.	8b\L	.	8b\L	.	.	.	.	.	.
8c\	.	8cc\	.	8cc\	.	.	.	.	.	.
8G\	X 4	8d/	.	8d/	.	.	.	.	.	.
8GG/J	X 3	8b\J	.	8b\J	.	.	.	.	.	.
=73	=73	=73	=73	=73	=73	=73	=73	=73	=73	=73
!	!	!LO:TX:t=P:problem:mixed beam	!	!	!	!	!	!	!	!
8C/L	.	8cc\L	.	8cc\L	.	1ryy	1ryy	1ryy	8r	.
!	!	!	!LO:DY:b:t=p&colon;	!	!LO:DY:b:t=p&colon;	!	!	!	!	!
8C/	.	8e/	p	8cc\	p	.	.	.	4g\	Glo-
8C/	.	8e/	.	8cc\	.	.	.	.	.	.
8C/J	.	8e/J	.	8cc\J	.	.	.	.	16a\LL	.
.	.	.	.	.	.	.	.	.	16b\JJ	.
8E\L	X 6	8g/L	.	8cc\L	.	.	.	.	4.cc\	.
8E\	.	8g/	.	8cc\	.	.	.	.	.	.
8E\	.	8g/	.	8cc\	.	.	.	.	.	.
8E\J	.	8cc/J	.	8cc\J	.	.	.	.	16dd\	-ri-
.	.	.	.	.	.	.	.	.	16ee\	-a
!	!	!	!	!	!	!	!	!	!LO:LB:g=original	!
=74	=74	=74	=74	=74	=74	=74	=74	=74	=74	=74
8D/L	X 7	8cc\L	.	8ff\L	.	1ryy	1ryy	1ryy	4ff\	Pa-
8D/	.	8cc\	.	8ff\	.	.	.	.	.	.
8GG/	X 7	8b\	.	8ff\	.	.	.	.	16ff\LL	.
.	.	.	.	.	.	.	.	.	16ee\	.
8GG/J	.	8b\J	.	8ff\J	.	.	.	.	16ff\	.
.	.	.	.	.	.	.	.	.	16gg\JJ	.
8C/L	.	8cc\L	.	8ee\L	.	.	.	.	8ee\	-tri
8C/	.	8cc\	.	8ee\	.	.	.	.	4ee\	glo-
8C/	.	8cc\	.	8ee\	.	.	.	.	.	.
8C/J	.	8cc\J	.	8ee\J	.	.	.	.	16ff\	-ri-
.	.	.	.	.	.	.	.	.	16gg\	-a
=75	=75	=75	=75	=75	=75	=75	=75	=75	=75	=75
8BB/L	X 6	8g/L	.	8dd\L	.	1ryy	1ryy	1ryy	8.dd\	Fi-
8BB/	.	8g/	.	8dd\	.	.	.	.	.	.
.	.	.	.	.	.	.	.	.	16g\	-li-
8BB/	.	8g/	.	8dd\	.	.	.	.	4g\	-o
8BB/J	.	8g/J	.	8dd\J	.	.	.	.	.	.
8G\L	.	8cc\L	.	8dd\L	.	.	.	.	4r	.
8G\	.	8cc\	.	8dd\	.	.	.	.	.	.
8G\	.	8cc\	.	8dd\	.	.	.	.	8g\	&
8G\J	.	8cc\J	.	8dd\J	.	.	.	.	8g\	Spi-
=76	=76	=76	=76	=76	=76	=76	=76	=76	=76	=76
8F#X\L	X 6	8a/L	.	8dd\L	.	1ryy	1ryy	1ryy	4a\	-ri-
8F#\	.	8a/	.	8dd\	.	.	.	.	.	.
8G\	.	8g/	.	8dd\	.	.	.	.	8b\	-tu-
8G\J	.	8g/J	.	8dd\J	.	.	.	.	8b\	-i
8B\L	X 7	8g/L	.	8cc\L	.	.	.	.	2cc\	Sanc-
8B\	.	8g/	.	8cc\	.	.	.	.	.	.
8D\	7 #	8f#X/	.	8cc\	.	.	.	.	.	.
8D\J	.	8f#/J	.	8cc\J	.	.	.	.	.	.
!LO:LB:g=original	!	!	!	!	!	!	!	!	!	!
=77	=77	=77	=77	=77	=77	=77	=77	=77	=77	=77
8G\L	.	8g/L	.	8b\L	.	1ryy	1ryy	1ryy	4b\	-to
8G\	.	8g/J	.	8b\	.	.	.	.	.	.
!	!	!LO:LB:g=original	!	!	!	!	!	!	!	!
8G\	.	8d/L	.	8b\	.	.	.	.	4r	.
8G\J	.	8d/J	.	8b\J	.	.	.	.	.	.
!	!	!	!	!LO:LB:g=original	!	!	!	!	!	!
8G\L	.	8d/L	.	8b\L	.	.	.	.	2r	.
8G\	.	8d/	.	8b\	.	.	.	.	.	.
8G\	.	8d/	.	8b\	.	.	.	.	.	.
8G\J	.	8d/J	.	8b\J	.	.	.	.	.	.
=78	=78	=78	=78	=78	=78	=78	=78	=78	=78	=78
8G\L	.	8d/L	.	8b\L	.	1ryy	1ryy	1ryy	0r	.
8G\	.	8d/	.	8b\	.	.	.	.	.	.
8G\	.	8d/	.	8b\	.	.	.	.	.	.
8G\J	X 7	8f/J	.	8b\J	.	.	.	.	.	.
8C/L	X 4	8f/L	.	8cc\L	.	.	.	.	.	.
8C/	X 3	8e/	.	8cc\	.	.	.	.	.	.
8C/	.	8e/	.	8cc\	.	.	.	.	.	.
8C/J	.	8e/J	.	8cc\J	.	.	.	.	.	.
=79	=79	=79	=79	=79	=79	=79	=79	=79	=79	=79
8D\L	X 6-	8e/L	.	8b-X/L	.	1ryy	1ryy	1ryy	.	.
8D\	.	8e/	.	8b-/	.	.	.	.	.	.
8E\	.	8g/	.	8b-/	.	.	.	.	.	.
8E\J	.	8g/J	.	8b-/J	.	.	.	.	.	.
8F\L	.	8f/L	.	8a/L	.	.	.	.	.	.
8F\	.	8f/	.	8a/	.	.	.	.	.	.
8F\	.	8f/	.	8a/	.	.	.	.	.	.
8F\J	.	8a/J	.	8dd/J	.	.	.	.	.	.
=80	=80	=80	=80	=80	=80	=80	=80	=80	=80	=80
4F\	4 2	8d/L	.	8bn\L	.	1ryy	1ryy	1ryy	1r	.
.	.	8d/	.	8b\	.	.	.	.	.	.
8E\L	X 6	8e/	.	8cc\	.	.	.	.	.	.
8C\J	.	8e/J	.	8cc\J	.	.	.	.	.	.
2GG/	X 4	8d/L	.	8cc\L	.	.	.	.	.	.
.	X 3	8d/	.	8cc\	.	.	.	.	.	.
.	.	8d/	.	8b\	.	.	.	.	.	.
.	.	8d/J	.	8b\J	.	.	.	.	.	.
=81	=81	=81	=81	=81	=81	=81	=81	=81	=81-	=81
4C/	.	4e/	.	4cc\	.	1ryy	1ryy	1ryy	2r	.
4r	.	4r	.	4r	.	.	.	.	.	.
*clefC1	*	*	*	*	*	*	*	*	*	*
!LO:TX:a:i:t=Tutti.	!	!LO:TX:a:i:t=Presto.	!	!LO:TX:a:i:t=Presto.	!	!	!	!	!	!
!LO:TX:a:t=|:problem	!	!	!	!	!	!	!	!	!	!
4g\	.	4g/	.	4g/	.	.	.	.	4g\	et
!LO:TX:a:t=|:problem	!	!	!	!	!	!	!	!	!	!
4cc\	.	4cc\	.	4cc\	.	.	.	.	4cc\	in
!	!	!	!	!	!	!	!	!	!LO:LB:g=original	!
=82	=82	=82	=82	=82	=82	=82	=82	=82	=82	=82
!LO:TX:a:t=|:problem	!	!	!	!	!	!	!	!	!	!
4.b\	.	4.b\	.	4.b\	.	1ryy	1ryy	1ryy	4.b\	sae-
!LO:TX:a:t=|:problem	!	!	!	!	!	!	!	!	!	!
16cc\LL	.	16cc\LL	.	16cc\LL	.	.	.	.	16cc\	-cu-
!LO:TX:a:t=|:problem	!	!	!	!	!	!	!	!	!	!
16dd\JJ	.	16dd\JJ	.	16dd\JJ	.	.	.	.	16dd\	-la
!LO:LB:g=original	!	!	!	!	!	!	!	!	!	!
8ee\L	.	8ee\L	.	8ee\L	.	.	.	.	8ee\	sae-
8cc\	.	8cc\	.	8cc\	.	.	.	.	8cc\	-cu-
8a\	.	8a\	.	8a\	.	.	.	.	8a\	-lo-
!	!	!	!	!LO:TX:a:t=P:problem:Urwana kartka partii vl 1 - brak ciągu dalszego	!	!	!	!	!	!
8dd\J	.	8dd\J	.	8dd\J	.	.	.	.	8dd\	-rum
!	!	!LO:LB:g=original	!	!	!	!	!	!	!	!
=83	=83	=83	=83	=83	=83	=83	=83	=83	=83	=83
*^	*	*	*	*	*	*	*	*	*	*
2rffyy	8b\	.	8b\	.	1ryy	.	1ryy	1ryy	1ryy	8b\	a-
.	4cc\	.	4cc\	.	.	.	.	.	.	4cc\	.
.	8b\	.	8b\	.	.	.	.	.	.	8b\	.
4cc/	4c\	.	4cc\	.	.	.	.	.	.	4cc\	-men
8rff	4g\	.	8r	.	.	.	.	.	.	8r	.
8b/	.	.	8b\	.	.	.	.	.	.	8b\	a-
=84	=84	=84	=84	=84	=84	=84	=84	=84	=84	=84	=84
16cc/LL	4.e\	.	16cc\LL	.	1ryy	.	1ryy	1ryy	1ryy	16cc\LL	.
16dd/J	.	.	16dd\J	.	.	.	.	.	.	16dd\JJ	.
8ee/J	.	.	8ee\J	.	.	.	.	.	.	8ee\	-men
8rff	.	.	8r	.	.	.	.	.	.	8r	.
8dd/	16f\LL	.	8dd\	.	.	.	.	.	.	8dd\	a-
.	16g\JJ	.	.	.	.	.	.	.	.	.	.
8cc/	8a\L	.	8cc\	.	.	.	.	.	.	8cc\	.
4dd/	8f\	.	4dd\	.	.	.	.	.	.	4dd\	.
.	8d\	.	.	.	.	.	.	.	.	.	.
16cc/LL	8g\J	.	8g/	.	.	.	.	.	.	16cc\LL	.
16b/JJ	.	.	.	.	.	.	.	.	.	16b\JJ	.
=85	=85	=85	=85	=85	=85	=85	=85	=85	=85	=85	=85
8cc/L	16e\LL	.	8cc\L	.	1ryy	.	1ryy	1ryy	1ryy	8cc\	.
.	16f#X\JJ	.	.	.	.	.	.	.	.	.	.
8b/J	4g\	.	8b\J	.	.	.	.	.	.	8b\	-men
*	*	*	*	*	*	*	*	*	*	*	*ij
4a/	.	.	4a/	.	.	.	.	.	.	4a\	a-
.	8f#\	.	.	.	.	.	.	.	.	.	.
*clefC4	*	*	*	*	*	*	*	*	*	*	*
4G/	2rBByy	.	8g/L	.	.	.	.	.	.	4g\	-men
*	*	*	*	*	*	*	*	*	*	*	*Xij
.	.	.	8g/	.	.	.	.	.	.	.	.
!	!	!	!	!	!	!	!	!	!	!LO:LB:g=original	!
4c\	.	.	8g/	.	.	.	.	.	.	8r	.
.	.	.	8g/J	.	.	.	.	.	.	8ee\	in
*v	*v	*	*	*	*	*	*	*	*	*	*
=86	=86	=86	=86	=86	=86	=86	=86	=86	=86	=86
4.B\	.	8g/L	.	1ryy	.	1ryy	1ryy	1ryy	8dd\	sae-
.	.	16g/L	.	.	.	.	.	.	16b\	-cu-
.	.	16a/JJ	.	.	.	.	.	.	16cc\	-la
.	.	8b/L	.	.	.	.	.	.	8dd\	sae-
16c\LL	.	8g/J	.	.	.	.	.	.	16ee\LL	-cu-
16d\JJ	.	.	.	.	.	.	.	.	16ff\JJ	.
!	!	!LO:TX:t=P:problem:mixed beam	!	!	!	!	!	!	!	!
8e\L	.	8cc\L	.	.	.	.	.	.	8gg\L	-lo-
8c\	.	8g/	.	.	.	.	.	.	8ee\J	.
8A\	.	8g/	.	.	.	.	.	.	8cc\L	.
8d\J	.	[<8f/J	.	.	.	.	.	.	[>8dd\J	.
!LO:LB:g=original	!	!	!	!	!	!	!	!	!	!
=87	=87	=87	=87	=87	=87	=87	=87	=87	=87	=87
!	!	!LO:TX:t=P:problem:mixed beam	!	!	!	!	!	!	!	!
8B\	.	8f/L]	.	1ryy	.	1ryy	1ryy	1ryy	8dd\L]	.
4c\	.	8cc\J	.	.	.	.	.	.	8ee\J	.
.	.	4dd\	.	.	.	.	.	.	4ff\	.
8B\	.	.	.	.	.	.	.	.	.	.
*clefF4	*	*	*	*	*	*	*	*	*	*
4C/	.	8cc\L	.	.	.	.	.	.	4ee\	-rum
.	.	8cc\J	.	.	.	.	.	.	.	.
4G\	.	16b\LL	.	.	.	.	.	.	4r	.
.	.	16cc\J	.	.	.	.	.	.	.	.
.	.	8dd\J	.	.	.	.	.	.	.	.
=88	=88	=88	=88	=88	=88	=88	=88	=88	=88	=88
4.E\	.	16cc\LL	.	1ryy	.	1ryy	1ryy	1ryy	1r	.
.	.	16dd\J	.	.	.	.	.	.	.	.
.	.	8ee\J	.	.	.	.	.	.	.	.
!	!	!LO:LB:g=original	!	!	!	!	!	!	!	!
.	.	8ee\L	.	.	.	.	.	.	.	.
16F\LL	.	8cc\J	.	.	.	.	.	.	.	.
16G\JJ	.	.	.	.	.	.	.	.	.	.
8A\L	.	8ee\	.	.	.	.	.	.	.	.
8F\	.	4ee\	.	.	.	.	.	.	.	.
8D\	.	.	.	.	.	.	.	.	.	.
8G\J	.	16ee\LL	.	.	.	.	.	.	.	.
.	.	16dd\JJ	.	.	.	.	.	.	.	.
=89	=89	=89	=89	=89	=89	=89	=89	=89	=89	=89
!	!	!	!	!	!	!	!	!	!LO:TX:a:t=P:problem:w źródle zbędne powtórzenie fragmentu wyznaczonego kreskami repetycyjnymi wskazanymi poniżej	!
!	!	!LO:TX:a:t=P:problem:w źródle brak kolejnych 8 pustych taktów; dodano je, aby zgadzały się piony brzmieniowe	!	!	!	!	!	!	!	!
!LO:TX:a:t=P:problem:w źródle brak kolejnych 8 pustych taktów; dodano je, aby zgadzały się piony brzmieniowe	!	!	!	!	!	!	!	!	!	!
1ryy	.	1ryy	.	1ryy	.	1ryy	1ryy	1ryy	2r	.
.	.	.	.	.	.	.	.	.	4g\	&
.	.	.	.	.	.	.	.	.	4cc\	in
=90	=90	=90	=90	=90	=90	=90	=90	=90	=90	=90
1ryy	.	1ryy	.	1ryy	.	1ryy	1ryy	1ryy	4.b\	sae-
.	.	.	.	.	.	.	.	.	16cc\	-cu-
.	.	.	.	.	.	.	.	.	16dd\	-la
!	!	!	!	!	!	!	!	!	!LO:TX:a:t=P:problem:w źródle  tym miejscu dodatkowa repetycyjna kreska taktowa	!
.	.	.	.	.	.	.	.	.	8ee\	sae-
.	.	.	.	.	.	.	.	.	8cc\	-cu-
.	.	.	.	.	.	.	.	.	8a\	-lo-
.	.	.	.	.	.	.	.	.	8dd\	-rum
=91	=91	=91	=91	=91	=91	=91	=91	=91	=91	=91
1ryy	.	1ryy	.	1ryy	.	1ryy	1ryy	1ryy	8b\	a-
.	.	.	.	.	.	.	.	.	4cc\	.
.	.	.	.	.	.	.	.	.	8b\	.
!	!	!	!	!	!	!	!	!	!LO:TX:a:t=P:problem:w źródle  tym miejscu dodatkowa repetycyjna zwrotna kreska taktowa	!
.	.	.	.	.	.	.	.	.	4cc\	-men
.	.	.	.	.	.	.	.	.	8r	.
.	.	.	.	.	.	.	.	.	8b\	a-
=92	=92	=92	=92	=92	=92	=92	=92	=92	=92	=92
1ryy	.	1ryy	.	1ryy	.	1ryy	1ryy	1ryy	16cc\LL	.
.	.	.	.	.	.	.	.	.	16dd\JJ	.
.	.	.	.	.	.	.	.	.	8ee\	-men
.	.	.	.	.	.	.	.	.	8r	.
.	.	.	.	.	.	.	.	.	8dd\	a-
.	.	.	.	.	.	.	.	.	8cc\	.
.	.	.	.	.	.	.	.	.	4dd\	.
.	.	.	.	.	.	.	.	.	16cc\LL	.
.	.	.	.	.	.	.	.	.	16b\JJ	.
=93	=93	=93	=93	=93	=93	=93	=93	=93	=93	=93
1ryy	.	1ryy	.	1ryy	.	1ryy	1ryy	1ryy	8cc\	.
.	.	.	.	.	.	.	.	.	8b\	-men
.	.	.	.	.	.	.	.	.	4a\	a-
.	.	.	.	.	.	.	.	.	4g\	-men
.	.	.	.	.	.	.	.	.	8r	.
.	.	.	.	.	.	.	.	.	8ee\	in
=94	=94	=94	=94	=94	=94	=94	=94	=94	=94	=94
1ryy	.	1ryy	.	1ryy	.	1ryy	1ryy	1ryy	8dd\	sae-
.	.	.	.	.	.	.	.	.	16b\	-cu-
.	.	.	.	.	.	.	.	.	16cc\	-la
.	.	.	.	.	.	.	.	.	8dd\	sae-
.	.	.	.	.	.	.	.	.	16ee\LL	-cu-
.	.	.	.	.	.	.	.	.	16ff\JJ	.
.	.	.	.	.	.	.	.	.	8gg\L	-lo-
.	.	.	.	.	.	.	.	.	8ee\	.
.	.	.	.	.	.	.	.	.	8cc\	.
.	.	.	.	.	.	.	.	.	[>8dd\J	.
=95	=95	=95	=95	=95	=95	=95	=95	=95	=95	=95
1ryy	.	1ryy	.	1ryy	.	1ryy	1ryy	1ryy	8dd\L]	.
.	.	.	.	.	.	.	.	.	8ee\J	.
.	.	.	.	.	.	.	.	.	4ff\	.
.	.	.	.	.	.	.	.	.	4ee\	-rum
.	.	.	.	.	.	.	.	.	4r	.
!	!	!	!	!	!	!	!	!	!LO:LB:g=original	!
=96	=96	=96	=96	=96	=96	=96	=96	=96	=96	=96
1ryy	.	1ryy	.	1ryy	.	1ryy	1ryy	1ryy	1r	.
=97	=97	=97	=97	=97	=97	=97	=97	=97	=97	=97
16E\LL	.	8ee\L	.	1ryy	.	1ryy	1ryy	1ryy	4a\	&
16F#X\JJ	.	.	.	.	.	.	.	.	.	.
.	X 3	.	.	.	.	.	.	.	.	.
4G\	.	8dd\J	.	.	.	.	.	.	.	.
.	4 2	4cc\	.	.	.	.	.	.	4cc\	in
8F#\	.	.	.	.	.	.	.	.	.	.
8G\L	.	8b\L	.	.	.	.	.	.	4.b\	sae-
16G\L	.	8dd\	.	.	.	.	.	.	.	.
16A\JJ	.	.	.	.	.	.	.	.	.	.
8B\L	X 6	8gg\	.	.	.	.	.	.	.	.
8G\J	.	8dd\J	.	.	.	.	.	.	16cc\	-cu-
.	.	.	.	.	.	.	.	.	16dd\	-la
=98	=98	=98	=98	=98	=98	=98	=98	=98	=98	=98
8E\L	X 6	8ee\L	.	1ryy	.	1ryy	1ryy	1ryy	8ee\	sae-
8A\	.	8ee\	.	.	.	.	.	.	8cc\	-cu-
8F\	X 6	8ff\	.	.	.	.	.	.	8a\	-lo-
8D\J	.	8ff\J	.	.	.	.	.	.	8dd\	-rum
8G\L	.	8dd\L	.	.	.	.	.	.	8b\	a-
8E\	X 6	8ee\J	.	.	.	.	.	.	4cc\	.
8D\	X 7	4ff\	.	.	.	.	.	.	.	.
8G\J	X 7	.	.	.	.	.	.	.	8b\	.
=99	=99	=99	=99	=99	=99	=99	=99	=99	=99	=99
!LO:TX:t=P:problem:mixed beam	!	!	!	!	!	!	!	!	!	!
8C/L	.	8ee\L	.	1ryy	.	1ryy	1ryy	1ryy	8cc\	-men
16c\L	.	16ee\L	.	.	.	.	.	.	16ee\LL	a-
16d\JJ	.	16ff\JJ	.	.	.	.	.	.	16ff\JJ	.
4e\	X 6	4gg\	.	.	.	.	.	.	4gg\	-men
8r	.	8r	.	.	.	.	.	.	8r	.
8e\L	X 6	8gg\L	.	.	.	.	.	.	8gg\L	a-
8d\	X 6	8ff\	.	.	.	.	.	.	8ff\	.
8c\J	.	8ee\J	.	.	.	.	.	.	8ee\J	.
!LO:LB:g=original	!	!	!	!	!	!	!	!	!	!
=100	=100	=100	=100	=100	=100	=100	=100	=100	=100	=100
8B\L	X 6	8dd\L	.	1ryy	.	1ryy	1ryy	1ryy	8dd\L	.
8c\	.	8ee\	.	.	.	.	.	.	8ee\	.
8B\	.	8dd\	.	.	.	.	.	.	8dd\	.
8A\J	.	8cc\J	.	.	.	.	.	.	8cc\J	.
8G\L	.	8b\L	.	.	.	.	.	.	8b\L	.
8A\	.	8cc\J	.	.	.	.	.	.	8cc\J	.
8G\	.	[>4dd\	.	.	.	.	.	.	[>4dd\	.
8F\J	.	.	.	.	.	.	.	.	.	.
=101	=101	=101	=101	=101	=101	=101	=101	=101	=101	=101
8E\L	7 #	8dd\L]	.	1ryy	.	1ryy	1ryy	1ryy	8dd\]	.
8A\J	.	8cc\J	.	.	.	.	.	.	8cc\	-men
*	*reverse	*	*	*	*	*	*	*	*	*
*	*	*	*	*	*	*	*	*	*	*ij
4E\	X 4#	4b\	.	.	.	.	.	.	4cc\	a-
*	*Xreverse	*	*	*	*	*	*	*	*	*
!LO:TX:t=P:problem:mixed beam	!	!	!	!	!	!	!	!	!	!
!	!	!LO:LB:g=original	!	!	!	!	!	!	!	!
8AA/L	.	8a\L	.	.	.	.	.	.	8b\	-men
*	*	*	*	*	*	*	*	*	*	*Xij
16A\L	.	16cc\L	.	.	.	.	.	.	16cc\LL	a-
16B\JJ	.	16dd\JJ	.	.	.	.	.	.	16dd\JJ	.
!	!	!	!	!	!	!	!	!	!LO:LB:g=original	!
4c\	X 6	4ee\	.	.	.	.	.	.	4ee\	-men
=102	=102	=102	=102	=102	=102	=102	=102	=102	=102	=102
8r	.	8r	.	1ryy	.	1ryy	1ryy	1ryy	8r	.
8A\L	X 6	8ee\L	.	.	.	.	.	.	8ee\L	a-
8B\	X 6	8gg\	.	.	.	.	.	.	8dd\J	.
8G\J	.	8gg\J	.	.	.	.	.	.	8dd\	-men
*	*	*	*	*	*	*	*	*	*	*ij
4c\	.	8gg\L	.	.	.	.	.	.	2ee\	a-
.	.	8gg\	.	.	.	.	.	.	.	.
4C/	.	8gg\	.	.	.	.	.	.	.	.
.	.	8gg\J	.	.	.	.	.	.	.	.
=103	=103	=103	=103	=103	=103	=103	=103	=103	=103	=103
8G\L	.	16gg\LL	.	1ryy	.	1ryy	1ryy	1ryy	8dd\	-men
*	*	*	*	*	*	*	*	*	*	*Xij
.	.	16gg\	.	.	.	.	.	.	.	.
8c\	.	16gg\	.	.	.	.	.	.	8ee\L	a-
.	.	16gg\JJ	.	.	.	.	.	.	.	.
8B\	.	16dd\LL	.	.	.	.	.	.	8dd\	.
.	.	16dd\	.	.	.	.	.	.	.	.
8c\J	.	16ee\	.	.	.	.	.	.	8ee\J	.
.	.	16ee\JJ	.	.	.	.	.	.	.	.
8G\L	.	16dd\LL	.	.	.	.	.	.	8dd\	-men
.	.	16dd\	.	.	.	.	.	.	.	.
8d\	X 6	16ff\	.	.	.	.	.	.	8ff\L	a-
.	.	16ff\JJ	.	.	.	.	.	.	.	.
8c\	.	16ee\LL	.	.	.	.	.	.	8ee\	.
.	.	16ee\	.	.	.	.	.	.	.	.
8d\J	.	16ff\	.	.	.	.	.	.	8ff\J	.
.	.	16ff\JJ	.	.	.	.	.	.	.	.
=104	=104	=104	=104	=104	=104	=104	=104	=104	=104	=104
8G\L	.	16dd\LL	.	1ryy	.	1ryy	1ryy	1ryy	8dd\	-men
.	.	16dd\	.	.	.	.	.	.	.	.
8e\	X 6	16gg\	.	.	.	.	.	.	8gg\L	a-
.	.	16gg\JJ	.	.	.	.	.	.	.	.
8d\	.	16ff\LL	.	.	.	.	.	.	8ff\	.
.	.	16ff\	.	.	.	.	.	.	.	.
8e\J	.	16gg\	.	.	.	.	.	.	8gg\J	.
.	.	16gg\JJ	.	.	.	.	.	.	.	.
8G\L	.	16dd\LL	.	.	.	.	.	.	8ff\	-men
.	.	16dd\	.	.	.	.	.	.	.	.
*	*	*	*	*	*	*	*	*	*	*ij
16f\L	4 2	16dd\	.	.	.	.	.	.	4ff\	a-
16e\JJ	.	16dd\JJ	.	.	.	.	.	.	.	.
16d\LL	X 6	8dd\L	.	.	.	.	.	.	.	.
16c\	.	.	.	.	.	.	.	.	.	.
16B\	.	16dd\L	.	.	.	.	.	.	8ff\	-men
*	*	*	*	*	*	*	*	*	*	*Xij
16A\JJ	.	16cc\JJ	.	.	.	.	.	.	.	.
!LO:LB:g=original	!	!	!	!	!	!	!	!	!	!
=105	=105	=105	=105	=105	=105	=105	=105	=105	=105	=105
8G\L	.	8b\L	.	1ryy	.	1ryy	1ryy	1ryy	8b\	a-
8E\	X 6	8gg\	.	.	.	.	.	.	4cc\	.
8A\	.	8a\	.	.	.	.	.	.	.	.
8F\J	X 6	8aa\J	.	.	.	.	.	.	8dd\	-men
*	*	*	*	*	*	*	*	*	*	*ij
!	!	!LO:LB:g=original	!	!	!	!	!	!	!	!
4G\	.	4dd\	.	.	.	.	.	.	4b\	a-
4C/	.	4ee\	.	.	.	.	.	.	4cc\	-men
*	*	*	*	*	*	*	*	*	*	*Xij
=106	=106	=106	=106	=106	=106	=106	=106	=106	=106	=106
2GG/	X 4	2dd\	.	1ryy	.	1ryy	1ryy	1ryy	4cc\	a-
.	X 3	.	.	.	.	.	.	.	4b\	.
!LO:TX:t=P:problem:mixed beam	!	!	!	!	!	!	!	!	!	!
8C/L	.	8ee\L	.	.	.	.	.	.	8cc\	-men
*	*	*	*	*	*	*	*	*	*	*ij
8E\	.	8cc\	.	.	.	.	.	.	4cc\	a-
8F\	.	8cc\	.	.	.	.	.	.	.	.
8E\J	.	8cc\J	.	.	.	.	.	.	8cc\	-men
*	*	*	*	*	*	*	*	*	*	*Xij
=107	=107	=107	=107	=107	=107	=107	=107	=107	=107	=107
2F\	.	4cc\	.	1ryy	.	1ryy	1ryy	1ryy	2cc\	a-
.	.	4ff\	.	.	.	.	.	.	.	.
2C/	.	2ee\	.	.	.	.	.	.	2cc\	-men
==;;	==;;	==;;	==	==	==	==	==	==	==;;	==
*-	*-	*-	*-	*-	*-	*-	*-	*-	*-	*-
!!!system-decoration: [g1][g2]s7
!!!RDF**kern: > = above
!!!RDF**kern: < = below
!!!EED: Antoni Szymański
!!!EST: 2021-01-03
!!!ENC: Marta Chmielewska
!!!END: 2020-07-03
